**kern	**dynam	**kern	**dynam	**kern	**dynam	**kern	**dynam	**mxhm
*part4	*part4	*part3	*part3	*part2	*part2	*part1	*part1	*part1
*staff4	*	*staff3	*	*staff2	*	*staff1	*	*
*I"Cello	*	*I"Viola	*	*I"2nd Violin	*	*I"1st Violin	*	*
*clefF4	*	*clefC3	*	*clefG2	*	*clefG2	*	*
*k[b-e-]	*	*k[b-e-]	*	*k[b-e-]	*	*k[b-e-]	*	*
*B-:	*	*B-:	*	*B-:	*	*B-:	*	*
*M3/2	*	*M3/2	*	*M3/2	*	*M3/2	*	*
=1	=1	=1	=1	=1	=1	=1	=1	=1
!LO:TX:b:Bi:t=p	!	!LO:TX:a:Bi:t=p	!	!	!	!	!	!
4.AA	.	4.A	.	1.r	.	2r	.	.f.#viio6
8FF#	.	8F#	.	.	.	.	.	.
2BB-	<	2B-	<	.	.	2r	.	i6
2r	[	2r	[	.	.	[2dd	.	.
=2	=2	=2	=2	=2	=2	=2	=2	=2
!LO:TX:a:Bi:t=p	!	!	!	!LO:TX:a:Bi:t=p	!	!LO:TX:a:Bi:t=p	!	!
1.r	.	[2d	.	2r	.	(8ddL]	.	i64
.	.	.	.	.	.	8cc	.	.
.	.	.	.	.	.	8b-	.	.
.	.	.	.	.	.	8aJ	.	.
.	.	(8dL]	.	[2dd	.	8gL	.	.
.	.	8c	.	.	.	8b-	.	.
.	.	8B-	.	.	.	8dd	.	i6
.	.	8AJ	.	.	.	8ff#J	.	#viio6
.	.	8GL	.	(8ddL]	.	4gg)	.	i
.	.	8B-	.	8cc	.	.	.	.
.	.	8d	.	8b-	.	4r	.	.
.	.	8gJ)	.	8aJ)	.	.	.	.
=3	=3	=3	=3	=3	=3	=3	=3	=3
!LO:TX:a:i:t=cresc.	!	!	!	!	!	!	!	!
!LO:TX:a:i:t=cresc.	!	!	!	!	!	!LO:TX:a:Bi:t=p	!	!
4.D	.	4.d	.	4g	.	2r	.	i64
.	.	.	.	4r	.	.	.	.
8BB	.	8B	.	.	.	.	.	.
2E-	>	2e-	>	2r	.	2r	.	iv6
2r	]	2r	]	2r	.	[2gg	.	.
=4	=4	=4	=4	=4	=4	=4	=4	=4
!	!	!LO:TX:a:Bi:t=p	!	!LO:TX:a:Bi:t=p	!	!	!	!
2r	.	2r	.	[2g	.	(8ggL]	.	iv64
.	.	.	.	.	.	8ff	.	.
.	.	.	.	.	.	8ee-	.	.
.	.	.	.	.	.	8ddJ	.	.
2r	.	[2g	.	(8gL]	.	8ccL	.	.
.	.	.	.	8f	.	8ee-	.	.
.	.	.	.	8e-	.	8gg	.	.
.	.	.	.	8dJ	.	8bbJ	.	.
2B-	.	8gL]	.	8cL	.	4ccc)	.	IV2
.	.	(8g	.	8e	.	.	.	.
.	.	8e	.	8g	.	4r	.	.
.	.	8cJ)	.	8ccJ)	.	.	.	.
=5	=5	=5	=5	=5	=5	=5	=5	=5
!LO:TX:a:Bi:t=f	!	!	!	!	!	!	!	!
!LO:TX:a:Bi:t=f	!	!	!	!	!	!	!	!
!LO:TX:b:i:t=cresc.	!	!LO:TX:b:i:t=cresc.	!	!LO:TX:a:Bi:t=f	!	!LO:TX:a:Bi:t=f	!	!
8B-L	.	8cL 8e	.	8gL 8ee	.	8cccL	.	.
8B-J	.	8cJ 8e	.	8gJ 8ee	.	8cccJ	.	.
4B-	.	4c 4e	.	4g 4ee	.	4ccc	.	.
2r	.	2r	.	2r	.	2r	.	.
2r	.	2r	.	2r	.	2r	.	.
=6	=6	=6	=6	=6	=6	=6	=6	=6
!LO:TX:a:Bi:t=f	!	!	!	!	!	!	!	!
!LO:TX:a:Bi:t=f	!	!LO:TX:a:Bi:t=f	!	!	!	!LO:TX:a:Bi:t=f	!	!
8AAL	.	8e-XL	.	8ccL 8ff#	.	8fff#L	.	#viio43
8AAJ	.	8e-J	.	8ccJ 8ff#	.	8fff#J	.	.
4AA	.	4e-	.	4cc 4ff#	.	4fff#	.	.
2r	.	2r	.	2r	.	2r	.	.
2r	.	2r	.	2r	.	2r	.	.
=7	=7	=7	=7	=7	=7	=7	=7	=7
!LO:TX:b:Bi:t=p	!	!LO:TX:a:Bi:t=f	!	!	!	!	!	!
!LO:TX:b:i:t=cresc.	!	!LO:TX:b:i:t=cresc.	!	!	!	!	!	!
!LO:TX:b:Bi:t=f	!	!LO:TX:a:Bi:t=p	!	!LO:TX:b:Bi:t=f	!	!LO:TX:b:Bi:t=f	!	!
4.E-	.	4.e-	.	2r	.	2r	.	#viio2
8C	.	8c	.	.	.	.	.	.
1F#	.	1f#	.	8ee-XL 8ccc	.	8aaaL	.	#viio7
.	.	.	.	8ee-J 8ccc	.	8aaaJ	.	.
.	.	.	.	4ee- 4ccc	.	4aaa	.	.
.	.	.	.	2r	.	2r	.	.
=8	=8	=8	=8	=8	=8	=8	=8	=8
!	!	!LO:TX:b:i:t=cresc.	!	!	!	!	!	!
!	!	!LO:TX:a:Bi:t=p	!	!	!	!	!	!
4.F#	.	4.f#	.	2r	.	2r	.	V6
8D	.	8d	.	.	.	.	.	.
1G	.	1g	.	8ddL 8bb-	.	8bbb-L	.	i
.	.	.	.	8ddJ 8bb-	.	8bbb-J	.	.
.	.	.	.	4dd 4bb-	.	4bbb-	.	.
.	.	.	.	2r	.	2r	.	.
=9	=9	=9	=9	=9	=9	=9	=9	=9
!	!	!LO:TX:b:Bi:t=ff	!	!	!	!	!	!
!	!	!LO:TX:a:Bi:t=ff	!	!	!	!	!	!
!	!	!LO:TX:b:Bi:t=f	!	!	!	!	!	!
!	!	!LO:TX:b:Bi:t=f	!	!	!	!LO:TX:b:Bi:t=ff	!	!
!	!	!LO:TX:a:Bi:t=f	!	!	!	!LO:TX:a:Bi:t=f	!	!
4.G	>	4.g	>	2r	>	2r	>	.
8E	.	8e	.	.	.	.	.	.
1A	]]	1a	]]	8ccL 8ff#	.	8eee-L	.	#viio65
.	.	.	.	8ccJ 8ff#	.	8eee-J	.	.
.	.	.	.	4cc 4ff#	.	4eee-	.	.
.	.	.	.	2r	]]	2r	]]	.
=10	=10	=10	=10	=10	=10	=10	=10	=10
!LO:TX:a:i:t=dim.	!	!	!	!LO:TX:b:i:t=dim.	!	!LO:TX:b:i:t=dim.	!	!
8DDL	.	8DL	.	2r	.	2r	.	V
8DDJ	.	8DJ	.	.	.	.	.	.
4DD	.	4D	.	.	.	.	.	.
2r	.	2r	.	8aaL 8ccc	.	8ff#L 8eee-	.	V65(+2)
.	.	.	.	8aaJ 8ccc	.	8ff#J 8eee-	.	.
.	.	.	.	4aa 4ccc	.	4ff# 4eee-	.	.
2r	.	2r	.	2r	.	2r	.	.
=11	=11	=11	=11	=11	=11	=11	=11	=11
!LO:TX:a:Bi:t=p	!	!	!	!LO:TX:a:Bi:t=p	!	!LO:TX:a:Bi:t=p	!	!
8DDL	.	8DL	.	2r	.	2r	.	V
8DDJ	.	8DJ	.	.	.	.	.	.
4DD	.	4D	.	.	.	.	.	.
2r	.	2r	.	8aaL 8ccc	.	8ff#L 8eee-	.	V65(+2)
.	.	.	.	8aaJ 8ccc	.	8ff#J 8eee-	.	.
.	.	.	.	4aa 4ccc	.	4ff# 4eee-	.	.
2r	.	2r	.	2r	.	2r	.	.
=12	=12	=12	=12	=12	=12	=12	=12	=12
!LO:TX:a:Bi:t=pp	!	!	!	!	!	!LO:TX:a:B:t=Adagio	!	!
8DDL	.	8DL	.	2r	.	2r	.	V
8DDJ	.	8DJ	.	.	.	.	.	.
4DD	.	4D	.	.	.	.	.	.
2r	.	2r	.	8dL	.	8ddL	.	.
.	.	.	.	8dJ	.	8ddJ	.	.
.	.	.	.	[4d	.	[4dd	.	.
4r	.	4r	.	4d]	.	4dd;]	.	.
!	!	!	!	!	!	!LO:TX:a:B:t=Allegro	!	!
4r	.	4r	.	4b	f	4bb	.	.
=13||	=13||	=13||	=13||	=13||	=13||	=13||	=13||	=13||
*k[f#]	*	*k[f#]	*	*k[f#]	*	*k[f#]	*	*
*G:	*	*G:	*	*G:	*	*G:	*	*
*M4/4	*	*M4/4	*	*M4/4	*	*M4/4	*	*
*met(c)	*	*met(c)	*	*met(c)	*	*met(c)	*	*
4r	.	4r	.	2dd'	.	2ddd'	.	V
4DD'	.	4D'	.	.	.	.	.	.
4FF#'	.	4F#'	.	2a'	.	2aa'	.	V6
4AA'	.	4A'	.	.	.	.	.	.
=14!|:	=14!|:	=14!|:	=14!|:	=14!|:	=14!|:	=14!|:	=14!|:	=14!|:
!LO:TX:a:Bi:t=f	!	!	!	!	!	!	!	!
4D'	.	4d'	.	2r	.	2r	.	V
4E'	.	4e'	.	.	.	.	.	.
4FX'	.	4fX'	.	4r	.	4r	.	.
4F#'	.	4f#'	.	4a	.	4aa	.	V6
=15	=15	=15	=15	=15	=15	=15	=15	=15
4G'	.	4g'	.	2cc'	.	2ccc'	.	I(+4)
4B'	.	4b'	.	.	.	.	.	.
4d'	.	4dd'	.	2g'	.	2gg'	.	I64
4e'	.	4g'	.	.	.	.	.	.
=16	=16	=16	=16	=16	=16	=16	=16	=16
4fX'	.	4g'	.	1r	.	1r	.	I
4f#'	.	4g'	.	.	.	.	.	.
4g'	.	4g'	.	.	.	.	.	.
4g'	.	4b'	.	.	.	.	.	.
=17	=17	=17	=17	=17	=17	=17	=17	=17
!LO:TX:a:Bi:t=p	!	!LO:TX:a:Bi:t=p	!	!	!	!LO:TX:a:Bi:t=p	!	!
[1g	.	[1b	.	1r	.	4r	.	I[I6
.	.	.	.	.	.	(4gg	.	.
.	.	.	.	.	.	4ffX	.	viio/IV
.	.	.	.	.	.	4ee	.	.
=18	=18	=18	=18	=18	=18	=18	=18	=18
1g_	.	(4b]	.	1r	.	4dd	.	.
.	.	4cc	.	.	.	4ee	.	.
.	.	4b	.	.	.	2ffX)	.	.
.	.	4dd)	.	.	.	.	.	.
=19	=19	=19	=19	=19	=19	=19	=19	=19
1g_	.	2.cc	.	1r	.	4r	.	IV(4)
.	.	.	.	.	.	(4ffX	.	.
.	.	.	.	.	.	4ee	.	IV
.	.	(4fX	.	.	.	4dd	.	V2/IV
=20	=20	=20	=20	=20	=20	=20	=20	=20
1g_	.	4e	.	1r	.	4cc	.	IV6
.	.	4d	.	.	.	4dd	.	I64
.	.	4c	.	.	.	2ee)	.	IV
.	.	4cc)	.	.	.	.	.	.
=21	=21	=21	=21	=21	=21	=21	=21	=21
1g_	.	(2.a 2.cc	.	1r	.	4r	.	ii
.	.	.	.	.	.	(4ee	.	.
.	.	.	.	.	.	4dd	.	.
.	.	4ee	.	.	.	4cc	.	.
=22	=22	=22	=22	=22	=22	=22	=22	=22
1g_	.	4dd	.	1r	.	4b	.	I6
.	.	4ee	.	.	.	4cc	.	IV
.	.	4dd	.	.	.	4b	.	I6
.	.	4cc	.	.	.	4a	.	ii
=23	=23	=23	=23	=23	=23	=23	=23	=23
1g_	.	4b	.	2r	.	4g	.	I6
.	.	2cc	.	.	.	4a	.	ii65
.	.	.	.	4r	.	4d	.	V7
.	.	[4dd)	.	4cc 4aa	.	4f#	.	.
=24	=24	=24	=24	=24	=24	=24	=24	=24
!	!	!	!	!LO:TX:a:Bi:t=f	!	!	!	!
4g]	.	4dd]	.	2b' 2bb	.	4g)	.	I]
(4g	.	(4d	.	.	.	(4gg	.	.
4d	.	4g	.	2b' 2gg	.	4bb	.	I64
4B)	.	4d)	.	.	.	4ddd	.	.
=25	=25	=25	=25	=25	=25	=25	=25	=25
!	!	!	!	!LO:TX:a:Bi:t=p	!	!	!	!
(2G	.	(2B	.	4r	.	[1ggg)	.	V65/IV
.	.	.	.	(4gg	.	.	.	.
2B	.	2d	.	4ffX	.	.	.	.
.	.	.	.	4ee	.	.	.	.
=26	=26	=26	=26	=26	=26	=26	=26	=26
2G	.	2B	.	4dd	.	4ggg]	.	I
.	.	.	.	4ee	.	(4ggg	.	.
2d)	.	2b)	.	[2ffX)	.	4fffX	.	viio6/IV
.	.	.	.	.	.	4eee	.	.
=27	=27	=27	=27	=27	=27	=27	=27	=27
(2G	.	(2B	.	4ff]	.	4ddd	.	V7/IV
.	.	.	.	(4ffX	.	4eee	.	.
2B	.	2d)	.	4ee	.	2fffX)	.	viio/IV
.	.	.	.	4dd	.	.	.	.
=28	=28	=28	=28	=28	=28	=28	=28	=28
2G	.	[1e	.	4cc	.	4r	.	IV64
.	.	.	.	4dd)	.	(4fffX	.	.
2c)	.	.	.	[2ee	.	4eee	.	IV
.	.	.	.	.	.	4ddd	.	.
=29	=29	=29	=29	=29	=29	=29	=29	=29
(2GG	.	2e]	.	4ee]	.	4ccc	.	IV64
.	.	.	.	(4ee	.	4ddd	.	.
2C	.	2E 2c	.	4dd	.	[2eee)	.	IV
.	.	.	.	4cc	.	.	.	.
=30	=30	=30	=30	=30	=30	=30	=30	=30
2GG	.	[1A [1c	.	4b	.	4eee]	.	ii2(+2)
.	.	.	.	4cc	.	(4eee	.	.
2C	.	.	.	4b	.	4ddd	.	ii6(119)
.	.	.	.	4a	.	4ccc	.	ii6
=31	=31	=31	=31	=31	=31	=31	=31	=31
2GG	.	1A] 1c]	.	4g	.	4bb	.	ii2(9)
.	.	.	.	4a	.	4aa)	.	ii2
2C	.	.	.	4d	.	4aa	.	V2
.	.	.	.	4f#	.	4cc 4aa	.	.
=32	=32	=32	=32	=32	=32	=32	=32	=32
!	!	!	!	!LO:TX:a:Bi:t=sf	!	!	!	!
2GG	.	1G 1B	.	4g	.	2b 2ddd	.	I
.	.	.	.	4b	.	.	.	.
2BB)	.	.	.	4dd)	.	4b 4bb	.	I6
.	.	.	.	4dd	.	4gg	p	.
=33	=33	=33	=33	=33	=33	=33	=33	=33
!	!	!LO:TX:a:Bi:t=f	!	!LO:TX:a:Bi:t=f	!	!LO:TX:b:Bi:t=f	!	!
4G	.	4G 4B	.	4b 4dd	.	4g	.	I
4r	.	4r	.	4r	.	4r	.	.
4r	.	4r	.	4r	.	4r	.	.
4G	.	4B	.	4b	.	4gg	.	.
=34	=34	=34	=34	=34	=34	=34	=34	=34
4F#	.	4d	.	4A	.	4a	.	V6
4r	.	4r	.	4r	.	4r	.	.
4r	.	4r	.	4r	.	4r	.	.
4F#	.	4A	.	4d	.	4aa	.	.
=35	=35	=35	=35	=35	=35	=35	=35	=35
4E	.	4G	.	4g	.	4b	.	vi
4r	.	4r	.	4r	.	4r	.	.
4r	.	4r	.	4r	.	4r	.	.
4E	.	4G	.	4g	.	4bb	.	.
=36	=36	=36	=36	=36	=36	=36	=36	=36
4E	.	4G	.	4g	.	4cc	.	IV6
4r	.	4r	.	4r	.	4ccc	.	.
4BB	.	4G	.	4d	.	4dd	.	I6
4r	.	4r	.	4r	.	4ddd	.	.
=37	=37	=37	=37	=37	=37	=37	=37	=37
4C	.	4G	.	4c	.	4ee	.	IV
4r	.	4r	.	4r	.	4r	.	.
4r	.	4r	.	4r	.	4r	.	.
4C	.	4G	.	4g	.	4eee	.	.
=38	=38	=38	=38	=38	=38	=38	=38	=38
4AA	.	4A	.	4cc	.	4ff#	.	viio6
4r	.	4r	.	4r	.	4r	.	.
4r	.	4r	.	4r	.	4r	.	.
4AA	.	4A	.	4cc	.	4fff#	.	.
=39	=39	=39	=39	=39	=39	=39	=39	=39
4GG	.	4B	.	4b	.	4gg	.	I\\
4r	.	4r	.	4r	.	4r	.	.
4r	.	4r	.	4r	.	4r	.	.
4GG	.	4G	.	4g	.	4ggg	.	.
=40	=40	=40	=40	=40	=40	=40	=40	=40
4EE	.	4E	.	4e	.	4ee	.	IV6
4r	.	4r	.	4r	.	4eee	.	.
4FF#	.	4F#	.	4f#	.	4ff#	.	V6
4r	.	4r	.	4r	.	4fff#	.	.
=41	=41	=41	=41	=41	=41	=41	=41	=41
4GG'	.	4G'	.	4B'	.	4b'	.	I
4G'	.	4B'	.	4b'	.	4ee'	.	vi6
4F#'	.	4c#'	.	4a#X'	.	4cc#'	.	V/iii\\
4r	.	4r	.	4r	.	4ff#'	.	.
=42	=42	=42	=42	=42	=42	=42	=42	=42
1r	.	1r	.	1r	.	4ff#'	.	.
.	.	.	.	.	.	4ee#X'	.	.
.	.	.	.	.	.	4ff#'	.	.
.	.	.	.	.	.	4aa#X'	.	.
=43	=43	=43	=43	=43	=43	=43	=43	=43
1r	.	1r	.	1r	.	4ccc#'	.	.
.	.	.	.	.	.	4r	.	.
.	.	.	.	.	.	4fff#'	.	.
.	.	.	.	.	.	4r	.	.
=44	=44	=44	=44	=44	=44	=44	=44	=44
1r	.	1r	.	1r	.	1r	.	.
=45||	=45||	=45||	=45||	=45||	=45||	=45||	=45||	=45||
*k[f#c#g#d#a#]	*	*k[f#c#g#d#a#]	*	*k[f#c#g#d#a#]	*	*k[f#c#g#d#a#]	*	*
*B:	*	*B:	*	*B:	*	*B:	*	*
!	!	!	!	!	!	!LO:TX:a:Bi:t=p	!	!
[1BB	.	1r	.	1r	.	4r	.	#III.I[I
.	.	.	.	.	.	(4ee	.	.
.	.	.	.	.	.	4dd#	.	.
.	.	.	.	.	.	4cc#	.	.
=46	=46	=46	=46	=46	=46	=46	=46	=46
!	!	!LO:TX:b:Bi:t=p	!	!LO:TX:b:Bi:t=p	!	!	!	!
1BB_	.	4r	.	4r	.	4b	.	.
.	.	(4A	.	(4f#	.	4cc#	.	v6
.	.	4G#	.	4e	.	2dd#)	.	viio6
.	.	4F#	.	4d#	.	.	.	.
=47	=47	=47	=47	=47	=47	=47	=47	=47
1BB_	.	4E	.	4c#	.	4r	.	.
.	.	4F#	.	4d#	.	(4ff#	.	I64
.	.	[2G#)	.	[2e)	.	4ee	.	IV64
.	.	.	.	.	.	4dd#	.	.
=48	=48	=48	=48	=48	=48	=48	=48	=48
1BB_	.	4G#]	.	4e]	.	4cc#	.	ii64
.	.	(4f#	.	(4a	.	4dd#	.	viio6/IV
.	.	4e	.	4g#	.	2ee)	.	IV
.	.	4d#	.	4f#	.	.	.	.
=49	=49	=49	=49	=49	=49	=49	=49	=49
1BB_	.	4c#	.	4e	.	4r	.	ii
.	.	4d#	.	4f#	.	(4gg#	.	I6(+6)
.	.	[2e)	.	[2g#)	.	4ff#	.	IV(+2)
.	.	.	.	.	.	4ee	.	IV
=50	=50	=50	=50	=50	=50	=50	=50	=50
!LO:TX:a:i:t=cresc.	!	!	!	!	!	!	!	!
!LO:TX:a:i:t=cresc.	!	!LO:TX:a:i:t=cresc.	!	!	!	!LO:TX:a:i:t=cresc.	!	!
1BB_	.	(4e]	.	(4g#]	.	4a#	.	.
.	.	4A#)	.	4f#	.	4ee	.	V65
.	.	(4A#	.	4e	.	4cc#	.	.
.	.	4B	.	4d#	.	4ff#)	.	I
=51	=51	=51	=51	=51	=51	=51	=51	=51
!	!	!	!	!	!	!LO:TX:b:Bi:t=p	!	!
1BB]	.	4c#	.	4e	.	(4a#	.	viio6
.	.	4F#	.	4A#	.	4ee	.	V7
.	.	4G#	.	4B	.	4cc#	.	ii43
.	.	4A#)	.	4c#	.	4ff#)	.	V6]
=52	=52	=52	=52	=52	=52	=52	=52	=52
(4C#	.	(4A#	.	4e	.	(4f#	.	V43
4BB	.	4B	.	4d#	.	4dd#	.	I
4D#)	.	4F#)	.	4f#)	.	4b	.	I6
4d#	.	4r	.	4r	.	4ff#)	.	.
=53	=53	=53	=53	=53	=53	=53	=53	=53
!	!	!	!	!LO:TX:a:Bi:t=p	!	!	!	!
4B	.	1r	.	1r	.	(4f#	.	I
4r	.	.	.	.	.	4dd#	.	.
4F#	.	.	.	.	.	4b	.	I64
4r	.	.	.	.	.	4ff#)	.	.
=54	=54	=54	=54	=54	=54	=54	=54	=54
!	!	!LO:TX:a:Bi:t=p	!	!	!	!	!	!
4F#	.	1r	.	(4d#	.	1r	.	vi7
4r	.	.	.	4b	.	.	.	.
4G#	.	.	.	4f#	.	.	.	.
4r	.	.	.	4dd#)	.	.	.	.
=55	=55	=55	=55	=55	=55	=55	=55	=55
(2B	.	1r	.	(4d#	.	(4B	.	I
.	.	.	.	4b	.	4f#	.	.
4c#	.	.	.	4f#	.	4d#	.	I(2)
4d#)	.	.	.	4ff#)	.	4b)	.	I6
=56	=56	=56	=56	=56	=56	=56	=56	=56
!LO:TX:a:Bi:t=p	!	!	!	!	!	!	!	!
1c#	.	(4F#	.	1r	.	1r	.	V65
.	.	4e	.	.	.	.	.	.
.	.	4A#	.	.	.	.	.	.
.	.	4f#)	.	.	.	.	.	.
=57	=57	=57	=57	=57	=57	=57	=57	=57
4B	.	1r	.	1r	.	(4f#	.	I
4r	.	.	.	.	.	4dd#	.	.
4F#	.	.	.	.	.	4b	.	I64
4r	.	.	.	.	.	4ff#)	.	.
=58	=58	=58	=58	=58	=58	=58	=58	=58
4F#	.	1r	.	(4d#	.	1r	.	vi7
4r	.	.	.	4b	.	.	.	.
4G#	.	.	.	4f#	.	.	.	.
4r	.	.	.	4dd#)	.	.	.	.
=59	=59	=59	=59	=59	=59	=59	=59	=59
4G#	.	1r	.	1r	.	(4B	.	.
4r	.	.	.	.	.	4f#	.	.
4F#	.	.	.	.	.	4d#	.	I64
4r	.	.	.	.	.	4b)	.	.
=60	=60	=60	=60	=60	=60	=60	=60	=60
1F#	.	(4A#	.	(4f#	.	1r	.	V7
.	.	4e	.	4cc#	.	.	.	.
.	.	4c#	.	4a#	.	.	.	.
.	.	4a#)	.	4ee)	.	.	.	.
=61	=61	=61	=61	=61	=61	=61	=61	=61
!LO:TX:b:i:t=cresc.	!	!	!	!LO:TX:a:i:t=cresc.	!	!LO:TX:b:i:t=cresc.	!	!
(4BB	.	1r	.	(4dd#	.	4bb	.	I
4F#	.	.	.	4bb	.	4r	.	.
4D#	.	.	.	4ff#	.	4ff#	.	I6
4B)	.	.	.	4ddd#)	.	4r	.	.
=62	=62	=62	=62	=62	=62	=62	=62	=62
!LO:TX:a:i:t=cresc.	!	!	!	!	!	!	!	!
1r	.	(4D#	.	1r	.	4ff#	.	.
.	.	4B	.	.	.	4r	.	.
.	.	4F#	.	.	.	4gg#	.	vi2
.	.	4d#)	.	.	.	4r	.	.
=63	=63	=63	=63	=63	=63	=63	=63	=63
!	!	!LO:TX:a:Bi:t=p	!	!	!	!	!	!
!	!	!LO:TX:a:Bi:t=p	!	!	!	!LO:TX:a:Bi:t=p	!	!
1r	.	(4B	.	(4d#	.	(2bb	.	I
.	.	4f#	.	4dd#	.	.	.	.
.	.	4d#	.	4b	.	4ccc#	.	I6(+2)
.	.	4b)	.	4ff#)	.	4ddd#)	.	I
=64	=64	=64	=64	=64	=64	=64	=64	=64
1r	.	(4F#	.	(4a#	.	1ccc#	.	V65
.	.	4e	.	4cc#	.	.	.	.
.	.	4A#	.	4f#	.	.	.	.
.	.	4e)	.	4cc#)	.	.	.	.
=65	=65	=65	=65	=65	=65	=65	=65	=65
!LO:TX:a:i:t=cresc.	!	!	!	!	!	!	!	!
!LO:TX:a:i:t=cresc.	!	!	!	!	!	!LO:TX:a:i:t=cresc.	!	!
(4BB	.	(4D#	.	1r	.	4bb	.	I
4F#	.	4B)	.	.	.	4r	.	.
4D#	.	(4B	.	.	.	4ff#	.	I6
4B)	.	4d#)	.	.	.	4r	.	.
=66	=66	=66	=66	=66	=66	=66	=66	=66
!	!	!	!	!LO:TX:b:i:t=cresc.	!	!	!	!
4BB	.	(4d#	.	(4B	.	4ff#	.	I
4r	.	4b)	.	4f#	.	4r	.	.
4FF#	.	(4b	.	4d#	.	4gg#	.	vi2
4r	.	4dd#)	.	4b)	.	4r	.	.
=67	=67	=67	=67	=67	=67	=67	=67	=67
!	!	!LO:TX:a:Bi:t=p	!	!	!	!	!	!
!LO:TX:a:Bi:t=p	!	!LO:TX:a:Bi:t=p	!	!	!	!LO:TX:a:Bi:t=p	!	!
4FF#	.	(4A#	.	(4e	.	4gg#	.	V7(9)
4r	.	4e	.	4a#	.	4r	.	.
4GG#	.	4c#	.	4e	.	4ff#	.	V43(+2)
4r	.	4a#)	.	4cc#)	.	4r	.	.
=68	=68	=68	=68	=68	=68	=68	=68	=68
4GG#	.	(4B	.	(4d#	.	[1ff#	.	I64
4r	.	4d#	.	4f#	.	.	.	.
4FF#	.	4B)	.	4d#)	.	.	.	.
4r	.	4d#'	.	4b'	.	.	.	.
=69	=69	=69	=69	=69	=69	=69	=69	=69
!LO:TX:a:i:t=cresc.	!	!LO:TX:a:i:t=cresc.	!	!LO:TX:a:i:t=cresc.	!	!LO:TX:a:i:t=cresc.	!	!
4GG#	.	2b'	.	2dd#'	.	2.ff#]	.	V
4r	.	.	.	.	.	.	.	.
4FF#	.	2c#'	.	2a#'	.	.	.	.
4r	.	.	.	.	.	4ff#'	.	.
=70	=70	=70	=70	=70	=70	=70	=70	=70
4GG#	.	2r	.	2r	.	4aa#	.	V(2)
4r	.	.	.	.	.	4ccc#	.	.
4FF#	.	4r	.	4r	.	4fff#	.	V
4r	.	4A#	.	4cc#	.	[4ff#	.	.
=71	=71	=71	=71	=71	=71	=71	=71	=71
4GG#	.	2c#'	.	2ee'	.	2.ff#]	.	I64
4r	.	.	.	.	.	.	.	.
4FF#	.	2d#'	.	2b'	.	.	.	.
4r	.	.	.	.	.	4ff#'	.	.
=72	=72	=72	=72	=72	=72	=72	=72	=72
4GG#	.	1r	.	1r	.	4bb	.	vi
4r	.	.	.	.	.	4ddd#	.	.
4FF#	.	.	.	.	.	4fff#	.	I64
4B	.	.	.	.	.	4ddd#	.	.
=73	=73	=73	=73	=73	=73	=73	=73	=73
!	!	!	!	!	!	!LO:TX:b:i:t=piu	!	!
!LO:TX:b:i:t=piu	!	!	!	!	!	!LO:TX:a:Bi:t=f	!	!
!LO:TX:a:Bi:t=f	!	!	!	!	!	!LO:TX:a:Bi:t=f	!	!
2d#'	.	2r	.	2r	.	2fff#'	.	I6
2A#'	.	4r	.	4r	.	2ccc#'	.	V6(+6)
.	.	4F#	.	4dd#	.	.	.	.
=74	=74	=74	=74	=74	=74	=74	=74	=74
!LO:TX:a:i:t=piu	!	!	!	!	!	!	!	!
!LO:TX:a:Bi:t=f	!	!LO:TX:a:i:t=piu	!	!LO:TX:a:Bi:t=f	!	!	!	!
2r	.	2d#'	.	2ff#'	.	2r	.	I6
4r	.	2A#'	.	2cc#'	.	4r	.	V43
4c#	.	.	.	.	.	4eee	.	.
=75	=75	=75	=75	=75	=75	=75	=75	=75
2e'	.	2r	.	2r	.	2ggg#'	.	V2(+2)
2B'	.	4r	.	4r	.	2ddd#'	.	I(+42)
.	.	4c#	.	4ee	.	.	.	.
=76	=76	=76	=76	=76	=76	=76	=76	=76
!	!	!LO:TX:a:Bi:t=ff	!	!	!	!	!	!
!LO:TX:a:Bi:t=ff	!	!LO:TX:a:Bi:t=ff	!	!	!	!LO:TX:a:Bi:t=ff	!	!
2r	.	2e'	.	2gg#'	.	2r	.	IV
4r	.	4B'	.	4dd#'	.	4r	.	I
4D#	.	4B'	.	4d#'	.	4ff#'	.	I6
=77	=77	=77	=77	=77	=77	=77	=77	=77
2F#	.	4A#	.	4c#	.	4a#'	.	V7
.	.	4c# 4e	.	4a#	.	4cc#'	.	.
4C#	.	4c# 4e	.	4a#	.	4ff#'	.	V43
4C#	.	4c# 4e	.	4a#	.	4aa#'	.	.
=78	=78	=78	=78	=78	=78	=78	=78	=78
2D#	.	4d#	.	4f#	.	4bb	.	I6
.	.	4d#	.	4f# 4b	.	4ddd#	.	.
4BB	.	4d#	.	4f# 4b	.	4fff#	.	I
4BB	.	4D#	.	4d# 4f#	.	4bbb	.	.
=79	=79	=79	=79	=79	=79	=79	=79	=79
!	!	!LO:TX:a:Bi:t=sf	!	!	!	!	!	!
!	!	!LO:TX:a:Bi:t=sf	!	!	!	!LO:TX:a:Bi:t=sf	!	!
2FF#	.	2B	.	2d# 2f#	.	2dddd#	.	V(64)
2F#	.	2c# 2e	.	2a#	.	2aa#	.	V7
=80	=80	=80	=80	=80	=80	=80	=80	=80
4BB	.	4F# 4d#	.	4b	.	4bb	.	I\\
4r	.	4r	.	4r	.	4r	.	.
4r	.	4r	.	4r	.	4r	.	.
4FF#	.	4F#	.	4d#	.	4b	.	I64
=81	=81	=81	=81	=81	=81	=81	=81	=81
!LO:TX:a:Bi:t=p	!	!LO:TX:a:Bi:t=p	!	!	!	!LO:TX:a:Bi:t=p	!	!
2FF#'	.	2F#'	.	2d#'	.	2dd#'	.	.
2FF##X'	.	2F##X'	.	2c#' 2e	.	2a#'	.	#vo7
=82	=82	=82	=82	=82	=82	=82	=82	=82
!	!	!LO:TX:a:Bi:t=f	!	!	!	!	!	!
!	!	!LO:TX:a:Bi:t=f	!	!	!	!LO:TX:a:Bi:t=f	!	!
2r	.	2r	.	2r	.	2r	.	.
4r	.	4r	.	4r	.	4r	.	.
4GG	.	4G	.	4d	.	4bb	.	I.I
=83	=83	=83	=83	=83	=83	=83	=83	=83
4DD'	.	4D'	.	2dd'	.	2ddd'	.	V
4DD'	.	4D'	.	.	.	.	.	.
4FF#'	.	4F#'	.	2a'	.	2aa'	.	V6
4AA'	.	4A'	.	.	.	.	.	.
=84:|!	=84:|!	=84:|!	=84:|!	=84:|!	=84:|!	=84:|!	=84:|!	=84:|!
4BB	.	4F# 4d#	.	4b	.	4bb	.	#III.I
4r	.	4r	.	4r	.	4r	.	.
2r	.	4r	.	4r	.	4r	.	.
.	.	4G#	.	4d#	.	4b	.	vi
=85	=85	=85	=85	=85	=85	=85	=85	=85
!	!	!LO:TX:b:Bi:t=p	!	!	!	!	!	!
!	!	!LO:TX:a:Bi:t=p	!	!	!	!LO:TX:b:Bi:t=p	!	!
2r	.	2F#'	.	2b'	.	2dd#'	.	V(64)
4r	.	2F#'	.	2c#'	.	2a#'	.	V43
4C#	.	.	.	.	.	.	.	.
=||	=||	=||	=||	=||	=||	=||	=||	=||
*k[f#c#]	*	*k[f#c#]	*	*k[f#c#]	*	*k[f#c#]	*	*
*D:	*	*D:	*	*D:	*	*D:	*	*
!LO:TX:a:Bi:t=p	!	!	!	!	!	!	!	!
2E'	.	2r	.	2r	.	2r	.	@none
4BB'	.	4r	.	4r	.	4r	.	.
=86!|:	=86!|:	=86!|:	=86!|:	=86!|:	=86!|:	=86!|:	=86!|:	=86!|:
!	!	!LO:TX:a:Bi:t=f	!	!	!	!	!	!
!LO:TX:a:Bi:t=f	!	!LO:TX:a:Bi:t=f	!	!	!	!LO:TX:a:Bi:t=f	!	!
4BB	.	4B	.	4B	.	4b	.	.
=87	=87	=87	=87	=87	=87	=87	=87	=87
!LO:TX:a:Bi:t=sf	!	!	!	!	!	!	!	!
!LO:TX:a:Bi:t=sf	!	!LO:TX:a:Bi:t=sf	!	!	!	!LO:TX:a:Bi:t=sf	!	!
2D	.	2d	.	2d	.	2dd	.	V.I
4AA#X	.	4A#X	.	4A#X	.	4a#X	.	.
4D	.	4d	.	4d	.	4dd	.	.
=88	=88	=88	=88	=88	=88	=88	=88	=88
!LO:TX:a:Bi:t=sf	!	!LO:TX:a:Bi:t=sf	!	!LO:TX:a:Bi:t=sf	!	!LO:TX:a:Bi:t=sf	!	!
2F#	.	2f#	.	2f#	.	2ff#	.	iii
4C#	.	4c#	.	4c#	.	4cc#	.	.
4F#	.	4F#	.	4f#	.	4ff#	.	.
=89	=89	=89	=89	=89	=89	=89	=89	=89
!LO:TX:a:Bi:t=sf	!	!LO:TX:a:Bi:t=sf	!	!LO:TX:a:Bi:t=sf	!	!LO:TX:a:Bi:t=sf	!	!
2A	.	2A	.	2a	.	2aa	.	V
4E	.	4E	.	4e	.	4ee	.	.
4r	.	4r	.	4r	.	4r	.	.
=90	=90	=90	=90	=90	=90	=90	=90	=90
2r	.	2r	.	2r	.	2r	.	.
4r	.	4r	.	4r	.	4r	.	.
4EE	.	4E	.	4e	.	4ee	.	.
=91	=91	=91	=91	=91	=91	=91	=91	=91
!LO:TX:a:Bi:t=sf	!	!LO:TX:a:Bi:t=sf	!	!LO:TX:a:Bi:t=sf	!	!LO:TX:a:Bi:t=sf	!	!
2GG	.	2G	.	2g	.	2gg	.	IV
2DD	.	2D	.	2d	.	2dd	.	I
=92	=92	=92	=92	=92	=92	=92	=92	=92
!LO:TX:a:Bi:t=p	!	!LO:TX:a:Bi:t=p	!	!LO:TX:a:Bi:t=p	!	!	!	!
2r	.	2r	.	4r	.	1r	.	vi
.	.	.	.	(4ff#	.	.	.	.
4r	.	4r	.	4ee	.	.	.	.
*clefC4	*	*	*	*	*	*	*	*
4f#	.	4B	.	4dd	.	.	.	.
=93	=93	=93	=93	=93	=93	=93	=93	=93
!	!	!	!	!	!	!LO:TX:a:Bi:t=p	!	!
2a'	.	4A	.	4cc#	.	4r	.	V
.	.	4r	.	4dd	.	(4aa	.	.
2e'	.	4A	.	2ee)	.	4gg	.	V7
.	.	4r	.	.	.	4ff#	.	.
=94	=94	=94	=94	=94	=94	=94	=94	=94
!	!	!LO:TX:a:i:t=sempre	!	!	!	!	!	!
2r	.	1r	.	4r	.	4ee	.	V43
.	.	.	.	(4e	.	4ff#	.	.
4r	.	.	.	4d	.	2gg)	.	.
4e	.	.	.	4c#	.	.	.	.
=95	=95	=95	=95	=95	=95	=95	=95	=95
!	!	!LO:TX:a:i:t=sempre	!	!LO:TX:b:Bi:t=p	!	!LO:TX:a:i:t=sempre	!	!
2g'	.	4r	.	4B	.	4r	.	IV6
.	.	(4g	.	4c#	.	(4bb	.	vii%7
2d'	.	4f#	.	4d	.	4aa	.	I
.	.	4e	.	4e	.	4gg	.	.
=96	=96	=96	=96	=96	=96	=96	=96	=96
!LO:TX:a:Bi:t=p	!	!	!	!	!	!LO:TX:a:Bi:t=p	!	!
2r	.	4d	.	4f#	.	4ff#	.	.
.	.	4e	.	4e	.	4gg	.	.
4r	.	4f#)	.	4d)	.	4aa)	.	.
*clefF4	*	*	*	*	*	*	*	*
4G	.	[4b	.	[4dd	.	4ddd'	.	IV
=97	=97	=97	=97	=97	=97	=97	=97	=97
!LO:TX:a:i:t=sempre	!	!	!	!	!	!	!	!
4F#	.	(4b]	.	4dd]	.	2fff#'	.	vi64
4r	.	4d	.	(4ff#	.	.	.	.
4F#	.	4A#X	.	4ee	.	2ccc#'	.	V7/vi
4r	.	4B	.	4dd	.	.	.	.
=98	=98	=98	=98	=98	=98	=98	=98	=98
!LO:TX:a:Bi:t=p	!	!	!	!	!	!	!	!
2r	.	4A#X	.	4cc#	.	2r	.	.
.	.	4B	.	4dd	.	.	.	.
4r	.	[2c#)	.	4ee)	.	4r	.	.
4G	.	.	.	(4b	.	4ccc#'	.	vii%43
=99	=99	=99	=99	=99	=99	=99	=99	=99
4F#	.	4c#]	.	4a#X	.	2eee'	.	V7/vi
4r	.	(4e	.	4cc#	.	.	.	.
4F#	.	4d	.	4b	.	2bb'	.	vi64
4r	.	4c#	.	4ee	.	.	.	.
=100	=100	=100	=100	=100	=100	=100	=100	=100
2r	.	4B	.	4dd	.	2r	.	vi
.	.	4c#	.	4ee	.	.	.	.
4r	.	4d)	.	4ff#	.	4r	.	vi6
[4D	.	4B	.	4gg)	.	4eee	.	ii2
=101	=101	=101	=101	=101	=101	=101	=101	=101
4D]	.	2d'	.	4ff#	.	4eee	.	V(9)/IV
(4D	.	.	.	4r	.	4r	.	.
4CX	.	2A'	.	4ff#	.	4ddd	.	V2/IV
4BB	.	.	.	4r	.	4r	.	.
=102	=102	=102	=102	=102	=102	=102	=102	=102
4AA	.	1r	.	2r	.	4r	.	V43/IV
4BB	.	.	.	.	.	(4ddd	.	.
[2CX)	.	.	.	4r	.	4cccX	.	V2/IV
.	.	.	.	4d 4a	.	4bb	.	.
=103	=103	=103	=103	=103	=103	=103	=103	=103
4C]	.	4r	.	2ccX'	.	4aa)	.	.
(4CX	.	(4e-X	.	.	.	4r	.	.
4BB	.	4d	.	2g'	.	4r	.	I.I6
4AA	.	4cX	.	.	.	4ddd'	.	V43
=104	=104	=104	=104	=104	=104	=104	=104	=104
4GG	.	4B	.	2r	.	2ggg'	.	I
4AA	.	4cX	.	.	.	.	.	.
4BB)	.	4d	.	4r	.	4ddd'	.	I6
4BB	.	4e	.	4g'	.	(4bb	.	vi64
=105	=105	=105	=105	=105	=105	=105	=105	=105
4BB	.	4d#X	.	2b'	.	4ff#	.	V/vi
4r	.	4e	.	.	.	4gg	.	.
4r	.	4d#)	.	4f#'	.	4aa)	.	vi.#viio
(4cX	.	(4d#	.	4f#'	.	(4aa	.	#viio2
=106	=106	=106	=106	=106	=106	=106	=106	=106
4B	.	4e	.	2g'	.	4ee	.	i64
4A	.	4cX	.	.	.	4ff#	.	iio6
4G)	.	4B)	.	4e'	.	4gg)	.	i6
4r	.	4e'	.	(4gg	.	4r	.	.
=107	=107	=107	=107	=107	=107	=107	=107	=107
4r	.	2g'	.	4dd#X	.	1r	.	#viio43
(4cX	.	.	.	4ee	.	.	.	.
4B	.	4d#X'	.	4ff#')	.	.	.	.
4A	.	4d#'	.	(4ccX	.	.	.	.
=108	=108	=108	=108	=108	=108	=108	=108	=108
!	!	!	!	!	!	!LO:TX:a:Bi:t=p	!	!
4G	.	2e'	.	2.b)	.	4r	.	i6
4A	.	.	.	.	.	(4cccX	.	iv(9)
4G	.	4B'	.	.	.	[2bb)	.	V43
4F#)	.	[4B	.	(4a	.	.	.	.
=109	=109	=109	=109	=109	=109	=109	=109	=109
!	!	!LO:TX:a:Bi:t=pp	!	!	!	!	!	!
!LO:TX:b:Bi:t=pp	!	!LO:TX:a:Bi:t=pp	!	!	!	!LO:TX:a:Bi:t=pp	!	!
2E	.	2B]	.	4g	.	4bb]	.	i
.	.	.	.	4a	.	(4cccX	.	.
4BB	.	[2D#X	.	4g	.	4bb	.	V(6)
4BB	.	.	.	4f#	.	4aa	.	V7
=110	=110	=110	=110	=110	=110	=110	=110	=110
2CX	.	(4D#]	.	4a	.	4ff#	.	VI(64+2)
.	.	4E	.	4g	.	4gg	.	VI
4AA	.	4F#	.	4f#	.	4aa	.	iio6
4AA	.	4G	.	4e	.	4bb	.	iv7(+2)
=111	=111	=111	=111	=111	=111	=111	=111	=111
2CX	.	4F#	.	4d#X	.	4aa	.	VI(64+#2)
.	.	4G	.	4e	.	4gg	.	VI
4AA	.	4A	.	4f#	.	4ff#	.	iio6
4AA	.	[4cX	.	4g	.	4ee	.	iv7
=112	=112	=112	=112	=112	=112	=112	=112	=112
2BB	.	4c]	.	4f#	.	4dd#X	.	V7(+b2)
.	.	4B	.	4g	.	4ee	.	V(64)
4BB	.	4D#X	.	4a	.	4ff#	.	V7
4BB	.	4F#)	.	4b)	.	4dd#)	.	.
=113	=113	=113	=113	=113	=113	=113	=113	=113
!LO:TX:a:Bi:t=p	!	!	!	!LO:TX:a:Bi:t=p	!	!LO:TX:a:Bi:t=p	!	!
4EE'	.	4E'	.	4g#X' 4b	.	4ee'	.	I\\
4r	.	4r	.	4r	.	4r	.	.
2r	.	4e	.	4g#	.	4b	.	VI.I
.	.	4r	.	4r	.	4r	.	.
=114	=114	=114	=114	=114	=114	=114	=114	=114
1r	.	4e	.	4g#X	.	4b	.	I
.	.	4r	.	4r	.	4r	.	.
.	.	4d#X	.	4a	.	4cc#	.	vii%7
.	.	4r	.	4r	.	4r	.	.
=115||	=115||	=115||	=115||	=115||	=115||	=115||	=115||	=115||
*k[f#c#g#d#]	*	*k[f#c#g#d#]	*	*k[f#c#g#d#]	*	*k[f#c#g#d#]	*	*
*E:	*	*E:	*	*E:	*	*E:	*	*
1r	.	(2c#	.	(2g#	.	(2ee	.	vi
.	.	4B	.	4dd#	.	4ff#	.	V
.	.	4A#X)	.	4ee)	.	4gg#X)	.	#iv%7
=116	=116	=116	=116	=116	=116	=116	=116	=116
(2f#	.	1B	.	1dd#	.	1ff#	.	V7
4g#X	.	.	.	.	.	.	.	.
4a)	.	.	.	.	.	.	.	.
=117	=117	=117	=117	=117	=117	=117	=117	=117
4g#	.	4e	.	4b	.	4ee	.	I\\
4r	.	4r	.	4r	.	4r	.	.
2r	.	4e	.	4g#	.	4b	.	I
.	.	4r	.	4r	.	4r	.	.
=118	=118	=118	=118	=118	=118	=118	=118	=118
1r	.	4e	.	4g#	.	4b	.	.
.	.	4r	.	4r	.	4r	.	.
.	.	4d#	.	4a	.	4cc#	.	vii%7
.	.	4r	.	4r	.	4r	.	.
=119	=119	=119	=119	=119	=119	=119	=119	=119
!	!	!	!	!	!	!LO:TX:b:Bi:t=p	!	!
1r	.	4c#	.	4a	.	4cc#	.	IV6
.	.	4r	.	4r	.	4r	.	.
.	.	4d#	.	4a	.	4b	.	V65
.	.	4r	.	4r	.	4r	.	.
=120	=120	=120	=120	=120	=120	=120	=120	=120
!LO:TX:b:i:t=cresc.	!	!	!	!	!	!	!	!
4E	.	1e	.	1g#	.	1b	.	I64
4r	.	.	.	.	.	.	.	.
4BB	.	.	.	.	.	.	.	.
4r	.	.	.	.	.	.	.	.
=121	=121	=121	=121	=121	=121	=121	=121	=121
!	!	!LO:TX:a:i:t=cresc.	!	!LO:TX:a:i:t=cresc.	!	!LO:TX:a:i:t=cresc.	!	!
4BB	.	4ee	.	4gg#	.	4eee	.	.
4r	.	4r	.	4r	.	4r	.	.
4C#	.	4ee	.	4gg#	.	4bb	.	vi7
4r	.	4r	.	4r	.	4r	.	.
=122	=122	=122	=122	=122	=122	=122	=122	=122
4C#	.	4ee	.	4gg#	.	4bb	.	.
4r	.	4r	.	4r	.	4r	.	.
4BB	.	4ee	.	4aa	.	4ccc#	.	I64(64)
4r	.	4r	.	4r	.	4r	.	.
=123	=123	=123	=123	=123	=123	=123	=123	=123
!	!	!LO:TX:a:Bi:t=p	!	!LO:TX:a:Bi:t=p	!	!	!	!
1BB	.	4ee	.	4aa	.	4ccc#	.	.
.	.	4r	.	4r	.	4r	.	.
.	.	4ee	.	4gg#	.	4bb	.	I64
.	.	4r	.	4r	.	4r	.	.
=124	=124	=124	=124	=124	=124	=124	=124	=124
!	!	!LO:TX:a:i:t=cresc.	!	!LO:TX:a:i:t=cresc.	!	!LO:TX:a:Bi:t=p	!	!
4a	.	4dd#	.	4ff#	.	1bb	.	I6
4r	.	4r	.	4r	.	.	.	.
4g#	.	4b	.	4ee	.	.	.	.
4r	.	4r	.	4r	.	.	.	.
=125	=125	=125	=125	=125	=125	=125	=125	=125
!	!	!LO:TX:a:Bi:t=p	!	!LO:TX:a:Bi:t=p	!	!LO:TX:a:i:t=cresc.	!	!
1g#	.	1b	.	1ee	.	4aa	.	I6(4)
.	.	.	.	.	.	4r	.	.
.	.	.	.	.	.	4gg#	.	I6
.	.	.	.	.	.	4r	.	.
=126	=126	=126	=126	=126	=126	=126	=126	=126
!	!	!LO:TX:a:i:t=cresc.	!	!LO:TX:a:i:t=cresc.	!	!LO:TX:a:Bi:t=p	!	!
4f#	.	4g#	.	4b	.	1gg#	.	I
4r	.	4r	.	4r	.	.	.	.
4e	.	4g#	.	4b	.	.	.	.
4r	.	4r	.	4r	.	.	.	.
=127	=127	=127	=127	=127	=127	=127	=127	=127
!	!	!	!	!	!	!LO:TX:a:i:t=cresc.	!	!
1e	.	1g#	.	1b	.	4ff#	.	I(9)
.	.	.	.	.	.	4r	.	.
.	.	.	.	.	.	4ee	.	I
.	.	.	.	.	.	4r	.	.
=128	=128	=128	=128	=128	=128	=128	=128	=128
!	!	!LO:TX:a:i:t=cresc.	!	!LO:TX:a:i:t=cresc.	!	!LO:TX:a:Bi:t=p	!	!
4e	.	4g#	.	4b	.	[1ee	.	V2/IV
4r	.	4r	.	4r	.	.	.	.
4d	.	4g#	.	4b	.	.	.	.
4r	.	4r	.	4r	.	.	.	.
=129	=129	=129	=129	=129	=129	=129	=129	=129
!LO:TX:a:Bi:t=p	!	!LO:TX:a:Bi:t=p	!	!LO:TX:a:Bi:t=p	!	!	!	!
(4d	.	[1g#	.	[1b	.	1ee_	.	.
4e	.	.	.	.	.	.	.	.
4d	.	.	.	.	.	.	.	.
4c#	.	.	.	.	.	.	.	.
=130	=130	=130	=130	=130	=130	=130	=130	=130
4B	.	1g#]	.	1b]	.	1ee_	.	V2/IV
4c#	.	.	.	.	.	.	.	.
[2d)	.	.	.	.	.	.	.	.
=131	=131	=131	=131	=131	=131	=131	=131	=131
4d]	.	[1a	.	([1cc#	.	1ee_	.	IV6
(4d	.	.	.	.	.	.	.	.
4c#	.	.	.	.	.	.	.	.
4B	.	.	.	.	.	.	.	.
=132	=132	=132	=132	=132	=132	=132	=132	=132
4A	.	2a]	.	2cc#]	.	1ee_	.	ii.i6
4B	.	.	.	.	.	.	.	.
4cX	.	2a	.	2ccX)	.	.	.	.
4d)	.	.	.	.	.	.	.	.
=133	=133	=133	=133	=133	=133	=133	=133	=133
!LO:TX:a:Bi:t=pp	!	!LO:TX:a:Bi:t=pp	!	!LO:TX:a:Bi:t=pp	!	!LO:TX:a:Bi:t=pp	!	!
[1e	.	4g#	.	(4b	.	4ee]	.	V
.	.	4F#	.	4a	.	(4ee	.	.
.	.	4G#	.	4b	.	4dd	.	V65
.	.	4A	.	4f#	.	4ccX	.	.
=134	=134	=134	=134	=134	=134	=134	=134	=134
1e_	.	4B	.	4g#	.	4b	.	V43
.	.	4A	.	4a	.	4ccX	.	.
.	.	[2G#	.	4b	.	[2dd)	.	V65
.	.	.	.	4fX	.	.	.	.
=135	=135	=135	=135	=135	=135	=135	=135	=135
1e_	.	4G#]	.	4e	.	4dd]	.	.
.	.	(4G#	.	4b	.	(4dd	.	.
.	.	4A	.	4e	.	4ccX	.	i
.	.	4B	.	4d	.	4b	.	V43
=136	=136	=136	=136	=136	=136	=136	=136	=136
4e]	.	4cX	.	4cX	.	4a	.	i6
(4D	.	4d	.	4B	.	4b	.	V2
4CX	.	4e	.	4A	.	[2ccX)	.	i6
4BB	.	4dd)	.	4B)	.	.	.	.
=137||	=137||	=137||	=137||	=137||	=137||	=137||	=137||	=137||
*k[f#]	*	*k[f#]	*	*k[f#]	*	*k[f#]	*	*
*G:	*	*G:	*	*G:	*	*G:	*	*
4AA	.	2ee	.	(4c	.	4cc]	.	i
4BB	.	.	.	4A	.	(4dd	.	.
[2C)	.	[2ee-X	.	4a	.	4cc	.	i.#viio6
.	.	.	.	4g	.	4b-X	.	.
=138	=138	=138	=138	=138	=138	=138	=138	=138
(4C]	.	2.ee-]	.	4f#	.	4a	.	.
4D	.	.	.	4g	.	4b-X	.	.
4C	.	.	.	4a	.	[2cc	.	.
4BB-X)	.	4e-X	.	4g)	.	.	.	.
=139	=139	=139	=139	=139	=139	=139	=139	=139
(4AA	.	4c	.	4f#	.	4cc])	.	.
4BB-X	.	4r	.	4r	.	4r	.	.
4AA	.	4G	.	(4d	.	4b-X	.	i(9)
4GG)	.	4r	.	4e-X)	.	4r	.	VI6
=140	=140	=140	=140	=140	=140	=140	=140	=140
(4GG	.	4E-X	.	4e-X	.	4b-X	.	.
4AA	.	4r	.	4r	.	4r	.	.
4GG	.	4FX	.	(4c	.	4a	.	.bVII(2)
4FFX)	.	4r	.	4d)	.	4r	.	v6
=141	=141	=141	=141	=141	=141	=141	=141	=141
(4FFX	.	4D	.	4d	.	4a	.	.
4GG	.	4r	.	4r	.	4r	.	.
4FF	.	4E-X	.	(4B-X	.	4g	.	VI(2)
4EE-X)	.	4r	.	4c)	.	4r	.	iv6
=142	=142	=142	=142	=142	=142	=142	=142	=142
(4EE-X	.	4E-X	.	4c	.	4g	.	.
4FFX	.	4r	.	4r	.	4r	.	.
4EE-	.	(4E-	.	(4A	.	(4f#	.	#viio2
4DD)	.	4D)	.	4B-X)	.	4fX)	.	III6
=143	=143	=143	=143	=143	=143	=143	=143	=143
4DD	.	4G	.	4B-X	.	4fX	.	VI6(2+7)
4r	.	4r	.	4r	.	4r	.	.
4GG	.	4G	.	4B-	.	4e-X	.	VI6
4r	.	4r	.	4r	.	4r	.	.
=144	=144	=144	=144	=144	=144	=144	=144	=144
4GG	.	4G	.	4B-X	.	4e-X	.	.
4r	.	4r	.	4r	.	4r	.	.
4BB-X	.	4G	.	4B-	.	4d	.	i6
4r	.	4r	.	4r	.	4r	.	.
=145	=145	=145	=145	=145	=145	=145	=145	=145
4DD	.	4G	.	4B-X	.	4fX	.	VI6(2+7)
4r	.	4r	.	4r	.	4r	.	.
4GG	.	4G	.	4B-	.	(4.e-XT	.	VI6
4r	.	4r	.	4r	.	.	.	.
.	.	.	.	.	.	16dLL	.	.
.	.	.	.	.	.	16e-JJ)	.	.
=146	=146	=146	=146	=146	=146	=146	=146	=146
4BB-X	.	4G	.	(4B-X	.	(4d	.	i6
4r	.	4r	.	4c#	.	4cc#	.	.
4D	.	4F# 4A	.	4d	.	4dd	.	V
4r	.	4r	.	4e-X)	.	4ee-X)	.	.
=147||	=147||	=147||	=147||	=147||	=147||	=147||	=147||	=147||
*k[b-e-]	*	*k[b-e-]	*	*k[b-e-]	*	*k[b-e-]	*	*
*B-:	*	*B-:	*	*B-:	*	*B-:	*	*
4C	.	4A	.	(4e-	.	(4ee-	.	iio6
4r	.	4r	.	4f	.	4ff	.	.
4BB-	.	(4F#	.	4e-	.	4ee-	.	i6(#76)
4r	.	4G)	.	4d)	.	4dd)	.	i6
=148	=148	=148	=148	=148	=148	=148	=148	=148
4BB-	.	4G	.	(4d	.	(4dd	.	.
4r	.	4r	.	4e-	.	4ee-	.	.
4AA	.	(4E	.	4d	.	4dd	.	VII6(#76)
4r	.	4FX)	.	4cX)	.	4cc)	.	VII6
=149	=149	=149	=149	=149	=149	=149	=149	=149
4AA	.	4F	.	(4c	.	(4cc	.	.
4r	.	4r	.	4d	.	4dd	.	.
4GG	.	(4D	.	4c	.	4cc	.	VI6(76)
4r	.	4E-)	.	4B-)	.	4b-)	.	VI6
=150	=150	=150	=150	=150	=150	=150	=150	=150
4GG	.	4E-	.	(4B-	.	(4b-	.	.
4r	.	4r	.	4c	.	4cc	.	.
(4GG-X	.	(4c	.	4B-	.	4b-	.	iv%43
4FF)	.	4d)	.	4A)	.	4a)	.	v6
=151	=151	=151	=151	=151	=151	=151	=151	=151
4FF	.	4g	.	4B-	.	4d	.	i2
4r	.	4r	.	4r	.	4r	.	.
4EE-	.	4G	.	4B-	.	4g	.	VI
4r	.	4r	.	4r	.	4r	.	.
=152	=152	=152	=152	=152	=152	=152	=152	=152
4EE-	.	4G	.	4B-	.	4g	.	.
4r	.	4r	.	4r	.	4r	.	.
4DD	.	4G	.	4B- 4g	.	4b-	.	i64
4r	.	4r	.	4r	.	4r	.	.
=153	=153	=153	=153	=153	=153	=153	=153	=153
4FF	.	4G	.	4B-	.	4d	.	i2
4r	.	4r	.	4r	.	4r	.	.
(4.EE-	.	4G	.	4B-	.	4g	.	VI
.	.	4r	.	4r	.	4r	.	.
16DDLL	.	.	.	.	.	.	.	.
16EE-JJ)	.	.	.	.	.	.	.	.
=154	=154	=154	=154	=154	=154	=154	=154	=154
1DD	.	4G	.	4B-	.	4b-	.	V(64)
.	.	4r	.	4r	.	4r	.	.
.	.	4F#	.	4A	.	4dd	.	V
.	.	4r	.	4r	.	4r	.	.
=155	=155	=155	=155	=155	=155	=155	=155	=155
!	!	!LO:TX:a:i:t=dim.	!	!	!	!	!	!
!LO:TX:a:i:t=dim.	!	!LO:TX:a:i:t=dim.	!	!LO:TX:a:i:t=dim.	!	!	!	!
4DD	.	4G	.	4B-	.	4f	.	i43
4r	.	4r	.	4r	.	4r	.	.
4GG	.	4G	.	4B-	.	(4.e-T	.	VI6
4r	.	4r	.	4r	.	.	.	.
.	.	.	.	.	.	16dLL	.	.
.	.	.	.	.	.	16e-JJ)	.	.
=156	=156	=156	=156	=156	=156	=156	=156	=156
4GG	.	4G	.	4B-	.	1d	.	i6
4r	.	4r	.	4r	.	.	.	.
4BB-	.	4G	.	4B-	.	.	.	.
4r	.	4r	.	4r	.	.	.	.
=157	=157	=157	=157	=157	=157	=157	=157	=157
!LO:TX:a:i:t=ritar -	!	!LO:TX:a:i:t=ritar -	!	!LO:TX:a:i:t=ritar -	!	!LO:TX:a:i:t=ritar -	!	!
4DD	.	4g	.	4b-	.	4ff	.	i43
4r	.	4r	.	4r	.	4r	.	.
4GG	<	(2gT	<[	(2b-T	<[	(2ee-T	<[	VI6
4r	[[	.	.	.	.	.	.	.
=158	=158	=158	=158	=158	=158	=158	=158	=158
!LO:TX:a:i:t=- dando	!	!	!	!LO:TX:b:i:t=- dando	!	!LO:TX:b:i:t=- dando	!	!
4BB-	>	1g)	>	1b-)	>	1ee-)	>	VIM2
4r	.	.	.	.	.	.	.	.
4D	]	.	.	.	.	.	.	.
4r	.	.	.	.	.	.	.	.
.	.	16qqf/LL	]	16qqa/LL	]	16qqdd/LL	]	.
.	.	16qqg/JJ	]]	16qqb-/JJ	]]	16qqee-/JJ	]]	.
=159	=159	=159	=159	=159	=159	=159	=159	=159
!	!	!	!	!	!	!LO:TX:a:t=in tempo	!	!
!	!	!LO:TX:b:i:t=cresc.	!	!LO:TX:b:i:t=cresc.	!	!LO:TX:b:i:t=cresc.	!	!
!	!	!LO:TX:a:Bi:t=p	!	!LO:TX:a:Bi:t=p	!	!LO:TX:a:Bi:t=p	!	!
4D	.	(4f#	.	(4a	.	[1dd	.	V
4r	.	4d	.	4b-	.	.	.	.
2r	.	4c	.	4a	.	.	.	.
.	.	4B-	.	4g	.	.	.	.
=160	=160	=160	=160	=160	=160	=160	=160	=160
4r	.	4A	.	4f#	.	1dd]	.	V64
(4B-	.	4G	.	4e-X	.	.	.	.
4A	.	4F#	.	4d	.	.	.	.
4G)	.	4E-X)	.	4c	.	.	.	.
=161	=161	=161	=161	=161	=161	=161	=161	=161
(4G	.	(4D	.	4B-	.	[1aa	.	VII6
4C	.	4d	.	4A)	.	.	.	.
4BB-	.	4G	.	2r	.	.	.	.
4AA	.	4FX	.	.	.	.	.	.
=162	=162	=162	=162	=162	=162	=162	=162	=162
4GG	.	4E-	.	4r	.	1aa]	.	V(6)
4FF	.	4D)	.	(4ddd	.	.	.	.
4EE-	.	(4g	.	4ccc	.	.	.	.
4DD)	.	4d) 4f#	.	4bb-	.	.	.	.
=163	=163	=163	=163	=163	=163	=163	=163	=163
(4c	.	(4ff#	.	4aa	.	[1ddd	.	VI6
4B-	.	4dd	.	4gg	.	.	.	.
4A	.	4cc	.	4ff#	.	.	.	.
4G	.	4b-	.	4ee-X	.	.	.	.
=164	=164	=164	=164	=164	=164	=164	=164	=164
4F#	.	4a	.	4dd	.	1ddd]	.	V43
4E-X	.	4g	.	4cc	.	.	.	.
4D	.	4d	.	4b-	.	.	.	.
4A)	.	4c)	.	4f#)	.	.	.	.
=165||	=165||	=165||	=165||	=165||	=165||	=165||	=165||	=165||
*M3/2	*	*M3/2	*	*M3/2	*	*M3/2	*	*
*	*	*	*	*tremolo	*	*	*	*
*	*	*	*	*	*	*tremolo	*	*
!	!	!LO:TX:a:Bi:t=ff	!	!	!	!LO:TX:a:B:t=Grave ma non troppo tratto.	!	!
!LO:TX:a:Bi:t=ff	!	!LO:TX:a:Bi:t=ff	!	!	!	!LO:TX:a:Bi:t=ff	!	!
4.AA	.	4.A	.	16dd 16ff#LL	.	16dddLL	.	V6
.	.	.	.	16dd 16ff#	.	16ddd	.	.
.	.	.	.	16dd 16ff#	.	16ddd	.	.
.	.	.	.	16dd 16ff#	.	16ddd	.	.
.	.	.	.	16dd 16ff#	.	16ddd	.	.
.	.	.	.	16dd 16ff#	.	16ddd	.	.
8FF#'	.	8F#'	.	16dd 16ff#	.	16ddd	.	.
.	.	.	.	16dd 16ff#JJ	.	16dddJJ	.	.
2BB-	.	2B-	.	16dd 16ff#LL	.	16dddLL	.	III+
.	.	.	.	16dd 16ff#	.	16ddd	.	.
.	.	.	.	16dd 16ff#	.	16ddd	.	.
.	.	.	.	16dd 16ff#	.	16ddd	.	.
.	.	.	.	16dd 16ff#	.	16ddd	.	.
.	.	.	.	16dd 16ff#	.	16ddd	.	.
.	.	.	.	16dd 16ff#	.	16ddd	.	.
.	.	.	.	16dd 16ff#JJ	.	16dddJJ	.	.
2r	.	[2d [2b-	.	16dd 16ff#LL	.	16dddLL	.	III+6
.	.	.	.	16dd 16ff#	.	16ddd	.	.
.	.	.	.	16dd 16ff#	.	16ddd	.	.
.	.	.	.	16dd 16ff#	.	16ddd	.	.
.	.	.	.	16dd 16ff#	.	16ddd	.	.
.	.	.	.	16dd 16ff#	.	16ddd	.	.
.	.	.	.	16dd 16ff#	.	16ddd	.	.
.	.	.	.	16dd 16ff#JJ	.	16dddJJ	.	.
=166	=166	=166	=166	=166	=166	=166	=166	=166
1.r	.	8dL] 8b-]	>	16dd 16ff#LL	>	16dddLL	>	.
.	.	.	.	16dd 16ff#	.	16ddd	.	.
.	.	(8c	.	16dd 16ff#	.	16ddd	.	.
.	.	.	.	16dd 16ff#	.	16ddd	.	.
.	.	8B-	.	16dd 16ff#	.	16ddd	.	.
.	.	.	.	16dd 16ff#	.	16ddd	.	.
.	.	8AJ	.	16dd 16ff#	.	16ddd	.	.
.	.	.	.	16dd 16ff#JJ	.	16dddJJ	.	.
.	.	8B-L	.	16dd 16ff#LL	.	16dddLL	.	.
.	.	.	.	16dd 16ff#	.	16ddd	.	.
.	.	8d	.	16dd 16ff#	.	16ddd	.	.
.	.	.	.	16dd 16ff#	.	16ddd	.	.
.	.	8g	.	16dd 16ff#	.	16ddd	.	.
.	.	.	.	16dd 16ff#	.	16ddd	.	.
.	.	8aJ	.	16dd 16ff#	.	16ddd	.	.
.	.	.	.	16dd 16ff#JJ	.	16dddJJ	.	.
.	.	8b-L	.	16dd 16ggLL	]]	16dddLL	]]	i6
.	.	.	.	16dd 16gg	.	16ddd	.	.
.	.	8g	.	16dd 16gg	.	16ddd	.	.
.	.	.	.	16dd 16gg	.	16ddd	.	.
.	.	8d	.	16dd 16gg	.	16ddd	.	.
.	.	.	.	16dd 16gg	.	16ddd	.	.
.	.	8B-J)	]]	16dd 16gg	.	16ddd	.	.
.	.	.	.	16dd 16ggJJ	.	16dddJJ	.	.
=167	=167	=167	=167	=167	=167	=167	=167	=167
!LO:TX:a:Bi:t=sf	!	!	!	!	!	!	!	!
!LO:TX:a:Bi:t=ff	!	!LO:TX:a:Bi:t=ff	!	!	!	!LO:TX:b:Bi:t=ff	!	!
4.D	.	4.d	.	16b 16ggLL	.	16dddLL	.	I6
.	.	.	.	16b 16gg	.	16ddd	.	.
.	.	.	.	16b 16gg	.	16ddd	.	.
.	.	.	.	16b 16gg	.	16ddd	.	.
.	.	.	.	16b 16gg	.	16ddd	.	.
.	.	.	.	16b 16gg	.	16ddd	.	.
8BB	.	8B'	.	16b 16gg	.	16ddd	.	.
.	.	.	.	16b 16ggJJ	.	16dddJJ	.	.
2E-	.	2e-	.	16b 16ggLL	.	16dddLL	.	VI+7
.	.	.	.	16b 16gg	.	16ddd	.	.
.	.	.	.	16b 16gg	.	16ddd	.	.
.	.	.	.	16b 16gg	.	16ddd	.	.
.	.	.	.	16b 16gg	.	16ddd	.	.
.	.	.	.	16b 16gg	.	16ddd	.	.
.	.	.	.	16b 16gg	.	16ddd	.	.
.	.	.	.	16b 16ggJJ	.	16dddJJ	.	.
[2G	.	2r	.	16b 16ggLL	.	16dddLL	.	I
.	.	.	.	16b 16gg	.	16ddd	.	.
.	.	.	.	16b 16gg	.	16ddd	.	.
.	.	.	.	16b 16gg	.	16ddd	.	.
.	.	.	.	16b 16gg	.	16ddd	.	.
.	.	.	.	16b 16gg	.	16ddd	.	.
.	.	.	.	16b 16gg	.	16ddd	.	.
.	.	.	.	16b 16ggJJ	.	16dddJJ	.	.
=168	=168	=168	=168	=168	=168	=168	=168	=168
(8GL]	>	2r	.	16b 16ggLL	>	16dddLL	>	V/iv
.	.	.	.	16b 16gg	.	16ddd	.	.
8FX	.	.	.	16b 16gg	.	16ddd	.	.
.	.	.	.	16b 16gg	.	16ddd	.	.
8E-	.	.	.	16b 16gg	.	16ddd	.	.
.	.	.	.	16b 16gg	.	16ddd	.	.
8DJ	.	.	.	16b 16gg	.	16ddd	.	.
.	.	.	.	16b 16ggJJ	.	16dddJJ	.	.
8E-L	.	2r	.	16b 16ggLL	.	16dddLL	.	VI+7
.	.	.	.	16b 16gg	.	16ddd	.	.
8G	.	.	.	16b 16gg	.	16ddd	.	.
.	.	.	.	16b 16gg	.	16ddd	.	.
8c	.	.	.	16b 16gg	.	16ddd	.	.
.	.	.	.	16b 16gg	.	16ddd	.	.
8dJ)	.	.	.	16b 16gg	.	16ddd	.	.
.	.	.	.	16b 16ggJJ	.	16dddJJ	.	.
4e-	]	(8e-L	>	16cc 16ggLL	]]	16cccLL	]]	iv6
.	.	.	.	16cc 16gg	.	16ccc	.	.
.	.	8g	.	16cc 16gg	.	16ccc	.	.
.	.	.	.	16cc 16gg	.	16ccc	.	.
4r	.	8cc	.	16cc 16gg	.	16ccc	.	.
.	.	.	.	16cc 16gg	.	16ccc	.	.
.	.	8ee-J)	]]	16cc 16gg	.	16ccc	.	.
.	.	.	.	16cc 16ggJJ	.	16cccJJ	.	.
=169	=169	=169	=169	=169	=169	=169	=169	=169
!LO:TX:a:Bi:t=f	!	!LO:TX:a:Bi:t=f	!	!LO:TX:a:Bi:t=f	!	!LO:TX:a:Bi:t=f	!	!
4.E-	.	4.e-	.	16ee- 16ggLL	.	16cccLL	.	iv
.	.	.	.	16ee- 16gg	.	16ccc	.	.
.	.	.	.	16ee- 16gg	.	16ccc	.	.
.	.	.	.	16ee- 16gg	.	16ccc	.	.
.	.	.	.	16ee- 16gg	.	16ccc	.	.
.	.	.	.	16ee- 16gg	.	16ccc	.	.
8C'	.	8c'	.	16ee- 16gg	.	16ccc	.	.
.	.	.	.	16ee- 16ggJJ	.	16cccJJ	.	.
2F#	.	2f#	.	16ee- 16aaLL	.	16cccLL	.	#viio7
.	.	.	.	16ee- 16aa	.	16ccc	.	.
.	.	.	.	16ee- 16aa	.	16ccc	.	.
.	.	.	.	16ee- 16aa	.	16ccc	.	.
.	.	.	.	16ee- 16aa	.	16ccc	.	.
.	.	.	.	16ee- 16aa	.	16ccc	.	.
.	.	.	.	16ee- 16aa	.	16ccc	.	.
.	.	.	.	16ee- 16aaJJ	.	16cccJJ	.	.
2r	.	2r	.	16ee- 16aaLL	>]	16cccLL	>]	iiio64
.	.	.	.	16ee- 16aa	.	16ccc	.	.
.	.	.	.	16ee- 16aa	.	16ccc	.	.
.	.	.	.	16ee- 16aa	.	16ccc	.	.
.	.	.	.	16ee- 16aa	.	16ccc	.	.
.	.	.	.	16ee- 16aa	.	16ccc	.	.
.	.	.	.	16ee- 16aa	.	16ccc	.	.
.	.	.	.	16ee- 16aaJJ	.	16cccJJ	.	.
=170	=170	=170	=170	=170	=170	=170	=170	=170
*tremolo	*	*	*	*	*	*	*	*
*	*	*tremolo	*	*	*	*	*	*
!LO:TX:a:Bi:t=f	!	!	!	!LO:TX:a:Bi:t=f	!	!LO:TX:a:Bi:t=f	!	!
16EE-LL	.	16E-LL	.	16ff# 16aaLL	.	16ee- 16cccLL	.	#viio2
16EE-	.	16E-	.	16ff# 16aa	.	16ee- 16ccc	.	.
16EE-	.	16E-	.	16ff# 16aa	.	16ee- 16ccc	.	.
16EE-	.	16E-	.	16ff# 16aa	.	16ee- 16ccc	.	.
16EE-	.	16E-	.	16ff# 16aa	.	16ee- 16ccc	.	.
16EE-	.	16E-	.	16ff# 16aa	.	16ee- 16ccc	.	.
16EE-	.	16E-	.	16ff# 16aa	.	16ee- 16ccc	.	.
16EE-JJ	.	16E-JJ	.	16ff# 16aaJJ	.	16ee- 16cccJJ	.	.
4EE-	.	4E-	.	16ff# 16aaLL	.	16ee- 16cccLL	.	.
.	.	.	.	16ff# 16aa	.	16ee- 16ccc	.	.
.	.	.	.	16ff# 16aa	.	16ee- 16ccc	.	.
.	.	.	.	16ff# 16aa	.	16ee- 16ccc	.	.
4r	.	4r	.	16ff# 16aa	.	16ee- 16ccc	.	.
.	.	.	.	16ff# 16aa	.	16ee- 16ccc	.	.
.	.	.	.	16ff# 16aa	.	16ee- 16ccc	.	.
.	.	.	.	16ff# 16aaJJ	.	16ee- 16cccJJ	.	.
2r	.	2r	.	4ff# 4aa	.	4ee- 4ccc	.	.
.	.	.	.	4r	.	4r	.	.
=171	=171	=171	=171	=171	=171	=171	=171	=171
!LO:TX:a:Bi:t=f	!	!	!	!	!	!	!	!
!LO:TX:a:Bi:t=f	!	!	!	!	!	!	!	!
2EE-	.	2E-	.	2r	.	2r	.	.
4DD	.	4D	.	2ff# 2aa	.	2ee- 2ccc	.	V7(+9)
4r	.	4r	.	.	.	.	.	.
2r	.	2r	.	4ff# 4aa	.	4ee- 4ccc	.	#viio7
.	.	.	.	4r	.	4r	.	.
=172	=172	=172	=172	=172	=172	=172	=172	=172
!LO:TX:b:i:t=dim.	!	!	!	!LO:TX:b:i:t=dim.	!	!	!	!
16DDLL	.	16DLL	.	2r	.	2r	.	V
16DD	.	16D	.	.	.	.	.	.
16DD	.	16D	.	.	.	.	.	.
16DD	.	16D	.	.	.	.	.	.
16DD	.	16D	.	.	.	.	.	.
16DD	.	16D	.	.	.	.	.	.
16DD	.	16D	.	.	.	.	.	.
16DDJJ	.	16DJJ	.	.	.	.	.	.
4DD	.	4D	.	16ff# 16aaLL	.	16ee- 16cccLL	.	V7(+9)
.	.	.	.	16ff# 16aa	.	16ee- 16ccc	.	.
.	.	.	.	16ff# 16aa	.	16ee- 16ccc	.	.
.	.	.	.	16ff# 16aa	.	16ee- 16ccc	.	.
4r	.	4r	.	16ff# 16aa	.	16ee- 16ccc	.	.
.	.	.	.	16ff# 16aa	.	16ee- 16ccc	.	.
.	.	.	.	16ff# 16aa	.	16ee- 16ccc	.	.
.	.	.	.	16ff# 16aaJJ	.	16ee- 16cccJJ	.	.
2r	.	2r	.	4ff# 4aa	.	4ee- 4ccc	.	#viio7
.	.	.	.	4r	.	4r	.	.
=173	=173	=173	=173	=173	=173	=173	=173	=173
!LO:TX:b:Bi:t=p	!	!	!	!LO:TX:b:Bi:t=p	!	!	!	!
16DDLL	.	16DLL	.	2r	.	2r	.	V
16DD	.	16D	.	.	.	.	.	.
16DD	.	16D	.	.	.	.	.	.
16DD	.	16D	.	.	.	.	.	.
16DD	.	16D	.	.	.	.	.	.
16DD	.	16D	.	.	.	.	.	.
16DD	.	16D	.	.	.	.	.	.
16DDJJ	.	16DJJ	.	.	.	.	.	.
16DDLL	.	16DLL	.	16ff# 16aaLL	.	16ee- 16cccLL	.	V7(+9)
16DD	.	16D	.	16ff# 16aa	.	16ee- 16ccc	.	.
16DD	.	16D	.	16ff# 16aa	.	16ee- 16ccc	.	.
16DD	.	16D	.	16ff# 16aa	.	16ee- 16ccc	.	.
16DD	.	16D	.	16ff# 16aa	.	16ee- 16ccc	.	.
16DD	.	16D	.	16ff# 16aa	.	16ee- 16ccc	.	.
16DD	.	16D	.	16ff# 16aa	.	16ee- 16ccc	.	.
16DDJJ	.	16DJJ	.	16ff# 16aaJJ	.	16ee- 16cccJJ	.	.
*	*	*	*	*	*	*Xtremolo	*	*
4DD	.	4D	.	4ff# 4aa	.	4ee- 4ccc	.	.
4EE-	.	4E-	.	4g	.	4bb-	.	VI
=174	=174	=174	=174	=174	=174	=174	=174	=174
!	!	!LO:TX:a:Bi:t=p	!	!	!	!	!	!
4.E-	.	2r	.	2gg'	.	2ggg'	.	.
8BB-	.	.	.	.	.	.	.	.
16FLL	.	4.A-X	.	2dd'	.	2ddd'	.	vo6
16F	.	.	.	.	.	.	.	.
16F	.	.	.	.	.	.	.	.
16F	.	.	.	.	.	.	.	.
16F	.	.	.	.	.	.	.	.
16F	.	.	.	.	.	.	.	.
16F	.	8F	.	.	.	.	.	.
16FJJ	.	.	.	.	.	.	.	.
4F	.	16a-XLL	.	4r	.	4r	.	.
.	.	16a-X	.	.	.	.	.	.
.	.	16a-X	.	.	.	.	.	.
.	.	16a-XJJ	.	.	.	.	.	.
4r	.	4a-	.	4f	.	4ff	.	.
=175	=175	=175	=175	=175	=175	=175	=175	=175
!	!	!LO:TX:a:i:t=cresc.	!	!	!	!	!	!
!LO:TX:a:i:t=cresc.	!	!LO:TX:a:i:t=cresc.	!	!	!	!LO:TX:a:i:t=cresc.	!	!
4.F	.	2r	.	2a-X'	.	2aa-X'	.	vii
8C	.	.	.	.	.	.	.	.
16GLL	.	4.B-	.	2e'	.	2ee'	.	#vio6
16G	.	.	.	.	.	.	.	.
16G	.	.	.	.	.	.	.	.
16G	.	.	.	.	.	.	.	.
16G	.	.	.	.	.	.	.	.
16G	.	.	.	.	.	.	.	.
16G	.	8G	.	.	.	.	.	.
16GJJ	.	.	.	.	.	.	.	.
4G	.	16b-LL	.	4r	.	4r	.	.
.	.	16b-	.	.	.	.	.	.
.	.	16b-	.	.	.	.	.	.
.	.	16b-JJ	.	.	.	.	.	.
4r	.	4b-	.	4g	.	4gg	.	.
=176	=176	=176	=176	=176	=176	=176	=176	=176
!LO:TX:a:Bi:t=f	!	!	!	!	!	!	!	!
!LO:TX:b:B:t=Allegro	!	!LO:TX:a:Bi:t=f	!	!LO:TX:a:Bi:t=f	!	!LO:TX:a:Bi:t=f	!	!
4.GG	.	2r	.	2b-'	.	2bb-'	.	i
8DD	.	.	.	.	.	.	.	.
16AALL	.	4.c	.	2f#'	.	2ff#'	.	#viio6
16AA	.	.	.	.	.	.	.	.
16AA	.	.	.	.	.	.	.	.
16AA	.	.	.	.	.	.	.	.
16AA	.	.	.	.	.	.	.	.
16AA	.	.	.	.	.	.	.	.
16AA	.	8F#	.	.	.	.	.	.
16AAJJ	.	.	.	.	.	.	.	.
16DD 16AALL	.	16e-LL	.	2r	.	2r	.	V(+9)
16DD 16AA	.	16e-	.	.	.	.	.	.
16DD 16AA	.	16e-	.	.	.	.	.	.
16DD 16AA	.	16e-JJ	.	.	.	.	.	.
16DD 16AA	.	4e-	.	.	.	.	.	.
16DD 16AA	.	.	.	.	.	.	.	.
16DD 16AA	.	.	.	.	.	.	.	.
16DD 16AAJJ	.	.	.	.	.	.	.	.
=177	=177	=177	=177	=177	=177	=177	=177	=177
!LO:TX:a:i:t=dim.	!	!	!	!LO:TX:a:i:t=dim.	!	!	!	!
16DD 16AALL	.	2r	.	16ee-LL	.	2r	.	.
16DD 16AA	.	.	.	16ee-	.	.	.	.
16DD 16AA	.	.	.	16ee-	.	.	.	.
16DD 16AA	.	.	.	16ee-JJ	.	.	.	.
16DD 16AA	.	.	.	4ee-	.	.	.	.
16DD 16AA	.	.	.	.	.	.	.	.
16DD 16AA	.	.	.	.	.	.	.	.
16DD 16AAJJ	.	.	.	.	.	.	.	.
16DD 16AALL	.	16ee-LL	.	16cccLL	.	2r	.	V7(+9)
16DD 16AA	.	16ee-	.	16ccc	.	.	.	.
16DD 16AA	.	16ee-	.	16ccc	.	.	.	.
16DD 16AA	.	16ee-JJ	.	16cccJJ	.	.	.	.
16DD 16AA	.	4ee-	.	4ccc	.	.	.	.
16DD 16AA	.	.	.	.	.	.	.	.
16DD 16AA	.	.	.	.	.	.	.	.
16DD 16AAJJ	.	.	.	.	.	.	.	.
16DD 16AALL	.	16cLL	.	16f#LL	.	16eee-LL	.	.
16DD 16AA	.	16c	.	16f#	.	16eee-	.	.
16DD 16AA	.	16c	.	16f#	.	16eee-	.	.
16DD 16AAJJ	.	16cJJ	.	16f#JJ	.	16eee-JJ	.	.
*	*	*	*	*Xtremolo	*	*	*	*
*	*	*Xtremolo	*	*	*	*	*	*
*Xtremolo	*	*	*	*	*	*	*	*
(8DDL 8AA	.	(8AL 8c	.	(8f#L	.	(16eee-LL	.	.
.	.	.	.	.	.	16ff#	.	.
8DDJ) 8D	.	8GJ)	.	8BJ)	.	16gg)	.	I.I
.	.	.	.	.	.	16bb'JJ	.	.
=178||	=178||	=178||	=178||	=178||	=178||	=178||	=178||	=178||
*k[f#]	*	*k[f#]	*	*k[f#]	*	*k[f#]	*	*
*G:	*	*G:	*	*G:	*	*G:	*	*
*M4/4	*	*M4/4	*	*M4/4	*	*M4/4	*	*
*met(c)	*	*met(c)	*	*met(c)	*	*met(c)	*	*
!LO:TX:b:Bi:t=p	!	!	!	!	!	!LO:TX:b:i:t=dolce	!	!
!LO:TX:a:Bi:t=p	!	!LO:TX:a:Bi:t=p	!	!	!	!LO:TX:a:Bi:t=p	!	!
[1DD [1D	.	(4F#	.	(4A	.	2ddd	.	V[V6
.	.	4A	.	4d)	.	.	.	.
.	.	4F#	.	(4d	.	4aa'	.	.
.	.	4A)	.	4f#)	.	4aa'	.	.
=179	=179	=179	=179	=179	=179	=179	=179	=179
!LO:TX:a:i:t=dolce	!	!LO:TX:a:i:t=dolce	!	!	!	!	!	!
1DD_ 1D_	.	(4F#	.	(4A	.	2ccc	.	V65
.	.	4A	.	4d)	.	.	.	.
.	.	4B	.	(4d	.	4gg'	.	I6
.	.	4d	.	4g)	.	4bb'	.	.
=180	=180	=180	=180	=180	=180	=180	=180	=180
1DD_ 1D_	.	4c	.	(4d	.	(4aa	.	V2
.	.	4B	.	4g	.	4gg)	.	I6
.	.	4A	.	4d	.	4ff#'	.	V64
.	.	4G	.	4B	.	4gg'	.	I
=181	=181	=181	=181	=181	=181	=181	=181	=181
!	!	!	!	!	!	!LO:TX:a:i:t=dim.	!	!
2DD] 2D]	.	4F#	.	4A	.	(4aa	.	V6
.	.	4A	.	4c	.	4ff#)	.	viio6]
4GG 4D	.	4G)	.	4B)	.	4gg'	.	I
4r	.	4g'	.	4b'	.	4bb'	.	.
=182	=182	=182	=182	=182	=182	=182	=182	=182
!	!	!	!	!	!	!LO:TX:a:Bi:t=f	!	!
!	!	!	!	!	!	!LO:TX:a:i:t=poco rit.	!	!
!	!	!	!	!	!	!LO:TX:a:i:t=poco rit.	!	!
!	!	!LO:TX:a:Bi:t=f	!	!LO:TX:a:Bi:t=f	!	!LO:TX:b:i:t=poco rit.	!	!
1r	.	(4f#	.	2dd	.	(4aa	.	V6
.	.	4b)	.	.	.	4gg)	.	I6
.	.	4cc'	.	4a'	.	4ff#'	.	V2
.	.	4c'	.	4a'	.	4gg'	.	ii65
=183	=183	=183	=183	=183	=183	=183	=183	=183
!	!	!	!	!LO:TX:a:Bi:t=sf	!	!	!	!
1r	.	(4c	.	2cc	.	(4aa	.	V2
.	.	4d)	.	.	.	4ff#)	.	V7
.	.	4B'	.	4g	.	4gg'	.	I6
.	.	4e'	.	4g 4ee	.	4ggg'	.	vi
=184	=184	=184	=184	=184	=184	=184	=184	=184
!	!	!LO:TX:a:Bi:t=sf	!	!	!	!	!	!
1r	.	2g	.	(4dd	.	(4fffX	.	V7/IV
.	.	.	.	4cc)	.	4eee)	.	IV64
.	.	4d	.	4b'	.	4fff'	.	viio6/IV
.	.	4d	.	4g' 4cc	.	4fff'	.	V43(4)/IV
=185	=185	=185	=185	=185	=185	=185	=185	=185
!	!	!LO:TX:a:Bi:t=sf	!	!	!	!LO:TX:b:i:t=dolce	!	!
2r	.	2fX	.	(4dd 2g	.	(4bb	.	V2/IV
.	.	.	.	4b)	.	4ddd)	.	.
4r	.	4c	.	4e 4cc	.	4eee'	.	IV
4C	.	4c	.	4e	.	4a	.	ii6
=186	=186	=186	=186	=186	=186	=186	=186	=186
2E	.	(4B	.	(4g#X	.	(4d	.	V7/ii
.	.	4A)	.	4a)	.	4c#)	.	II64
4BB	.	4G#X'	.	4dd'	.	4d'	.	#viio6/ii
4BB	.	4A'	.	4dd'	.	4d'	.	.
=187	=187	=187	=187	=187	=187	=187	=187	=187
2D	.	(4B	.	(4g#X	.	(4fX	.	#viio43/ii
.	.	4G#X)	.	4b)	.	4e)	.	V2/ii
4AA	.	4A'	.	4cc'	.	4e'	.	ii
4GG	.	4B'	.	4b'	.	4gg'	.	vi6
=188	=188	=188	=188	=188	=188	=188	=188	=188
!	!	!LO:TX:a:Bi:t=sf	!	!LO:TX:a:Bi:t=sf	!	!LO:TX:a:Bi:t=sf	!	!
(4FF#	.	2B	.	(4a	.	2bb	.	vi
4EE)	.	.	.	4g)	.	.	.	.
4DD#X'	.	4B	.	4a'	.	4ff#	.	V65/vi
4EE'	.	4B	.	4a'	.	4ff#	.	vi(94)
=189	=189	=189	=189	=189	=189	=189	=189	=189
!LO:TX:a:Bi:t=sf	!	!	!	!LO:TX:a:Bi:t=sf	!	!LO:TX:a:Bi:t=sf	!	!
(4FF#	.	(4B	.	(4g	.	2aa	.	#viio/vi
4DD#X)	.	4A)	.	4f#)	.	.	.	.
4EE'	.	4G'	.	4g'	.	4ee	.	vi
4DD'	.	4B-X'	.	4g'	.	4ee	.	vi%2
=190	=190	=190	=190	=190	=190	=190	=190	=190
!	!	!LO:TX:a:Bi:t=sf	!	!	!	!	!	!
!LO:TX:a:Bi:t=sf	!	!LO:TX:a:Bi:t=sf	!	!	!	!LO:TX:a:Bi:t=sf	!	!
(4D	.	(4B-X	.	(4g	.	2gg	.	V65/v
4C#)	.	4A)	.	4e)	.	.	.	.
4D'	.	4A'	.	4fX'	.	4dd	.	v
4CX'	.	4A-X'	.	4f'	.	4dd	.	v%2
=191	=191	=191	=191	=191	=191	=191	=191	=191
!LO:TX:a:Bi:t=sf	!	!	!	!	!	!	!	!
!LO:TX:a:Bi:t=sf	!	!LO:TX:a:Bi:t=sf	!	!	!	!LO:TX:a:Bi:t=sf	!	!
(4C	.	(4A-X	.	(4fX	.	2ffX	.	V65/IV
4BB)	.	4G)	.	4d)	.	.	.	.
4C'	.	4G'	.	4e'	.	4cc	.	IV
4C'	.	4G'	.	4e'	.	4ccc	.	.
=192	=192	=192	=192	=192	=192	=192	=192	=192
!	!	!	!	!LO:TX:a:i:t=sempre	!	!	!	!
!LO:TX:a:i:t=sempre	!	!LO:TX:a:i:t=sempre	!	!LO:TX:a:i:t=sempre	!	!	!	!
4c	.	4e	.	4g	.	4cc	.	IV\\
4r	.	4r	.	4r	.	4r	.	.
4r	.	4r	.	4r	.	4r	.	.
4c	.	4e	.	4g	.	4ccc	.	IV
=193	=193	=193	=193	=193	=193	=193	=193	=193
!	!	!	!	!LO:TX:a:Bi:t=f	!	!	!	!
!LO:TX:a:Bi:t=f	!	!LO:TX:a:Bi:t=f	!	!LO:TX:a:Bi:t=f	!	!	!	!
4B	.	4d	.	4g	.	4dd	.	I6
4r	.	4r	.	4r	.	4r	.	.
4r	.	4r	.	4r	.	4r	.	.
4B	.	4d	.	4g	.	4ddd	.	.
=194	=194	=194	=194	=194	=194	=194	=194	=194
4A	.	4c	.	4cc	.	4ee	.	ii
4r	.	4r	.	4r	.	4r	.	.
4r	.	4r	.	4r	.	4r	.	.
4A	.	4c	.	4cc	.	4eee	.	.
=195	=195	=195	=195	=195	=195	=195	=195	=195
4A	.	4c	.	4cc	.	4ffX	.	.bVII6
4r	.	4r	.	4r	.	4fffX	.	.
4E	.	4c	.	4cc	.	4gg	.	IV6
4r	.	4r	.	4r	.	4ggg	.	.
=196	=196	=196	=196	=196	=196	=196	=196	=196
4FX	.	4c	.	4cc	.	4aa	.	.bVII
4r	.	4r	.	4r	.	4r	.	.
4r	.	4r	.	4r	.	4r	.	.
4F	.	4A	.	4c	.	4aaa	.	.
=197	=197	=197	=197	=197	=197	=197	=197	=197
4D	.	4FX	.	4fX	.	4b	.	viio6/IV
4r	.	4r	.	4r	.	4r	.	.
4r	.	4r	.	4r	.	4r	.	.
4D	.	4fX	.	4b	.	4bb	.	.
=198	=198	=198	=198	=198	=198	=198	=198	=198
4C	.	4e	.	4ee	.	4cc	.	IV
4r	.	4r	.	4r	.	4r	.	.
4r	.	4r	.	4r	.	4r	.	.
4C	.	4c	.	4cc	.	4ccc	.	.
=199	=199	=199	=199	=199	=199	=199	=199	=199
4D	.	4d	.	4dd	.	4dd	.	I64
4r	.	4r	.	4r	.	4ddd	.	.
4E	.	4E 4e	.	4ee	.	4ee	.	IV6
4r	.	4r	.	4r	.	4eee	.	.
=200	=200	=200	=200	=200	=200	=200	=200	=200
4C'	.	4A'	.	4e'	.	4ee'	.	ii6
4AA'	.	4e'	.	4cc'	.	4aa'	.	ii
4BB'	.	4d#X'	.	4b'	.	4ff#'	.	V/vi
4r	.	4r	.	4r	.	4bb'	.	.
=201	=201	=201	=201	=201	=201	=201	=201	=201
1r	.	1r	.	1r	.	4bb'	.	.
.	.	.	.	.	.	4aa#X'	.	.
.	.	.	.	.	.	4bb'	.	.
.	.	.	.	.	.	4ddd#X'	.	.
=202	=202	=202	=202	=202	=202	=202	=202	=202
1r	.	1r	.	1r	.	4fff#'	.	.
.	.	.	.	.	.	4r	.	.
.	.	.	.	.	.	4bbb'	.	.
.	.	.	.	.	.	4r	.	.
=203	=203	=203	=203	=203	=203	=203	=203	=203
1r	.	1r	.	1r	.	1r	.	.
=204||	=204||	=204||	=204||	=204||	=204||	=204||	=204||	=204||
*k[f#c#g#d#]	*	*k[f#c#g#d#]	*	*k[f#c#g#d#]	*	*k[f#c#g#d#]	*	*
*E:	*	*E:	*	*E:	*	*E:	*	*
!LO:TX:a:Bi:t=p	!	!	!	!	!	!	!	!
4r	.	[1E	.	1r	.	1r	.	IV64
*clefC4	*	*	*	*	*	*	*	*
(4e	.	.	.	.	.	.	.	.
4d	.	.	.	.	.	.	.	.
4c#	.	.	.	.	.	.	.	.
=205	=205	=205	=205	=205	=205	=205	=205	=205
!	!	!	!	!LO:TX:a:Bi:t=p	!	!LO:TX:a:Bi:t=p	!	!
4B	.	1E_	.	4r	.	4r	.	I
4c#	.	.	.	(4b	.	(4bb	.	.
[2d)	.	.	.	4a	.	4aa	.	V2(4)/IV
.	.	.	.	4g#	.	4gg#	.	V2/IV
=206	=206	=206	=206	=206	=206	=206	=206	=206
4d]	.	1E_	.	4a	.	4aa	.	.
(4d	.	.	.	4b	.	4bb	.	.
4c#	.	.	.	[2cc#)	.	[2ccc#)	.	IV6
4B	.	.	.	.	.	.	.	.
=207	=207	=207	=207	=207	=207	=207	=207	=207
4A	.	1E_	.	4cc#]	.	4ccc#]	.	IV
4B	.	.	.	(4cc#	.	(4ccc#	.	.
[2c#)	.	.	.	4b	.	4bb	.	IV6
.	.	.	.	4a	.	4aa	.	.
=208	=208	=208	=208	=208	=208	=208	=208	=208
4c#]	.	1E_	.	4g#	.	4gg#	.	V7/IV
(4a	.	.	.	4f#	.	4ff#	.	.
4g#	.	.	.	4g#	.	4gg#	.	.
4f#	.	.	.	4a)	.	4aa)	.	.
=209	=209	=209	=209	=209	=209	=209	=209	=209
!	!	!LO:TX:a:i:t=sempre	!	!	!	!LO:TX:a:i:t=sempre	!	!
4e	.	1E_	.	(4c#	.	(4cc#	.	IV6
4d#X	.	.	.	4B	.	4b	.	V
4e	.	.	.	4c#	.	4cc#	.	IV6
4f#)	.	.	.	4d#	.	4dd#	.	V6
=210	=210	=210	=210	=210	=210	=210	=210	=210
!	!	!LO:TX:a:Bi:t=p	!	!	!	!LO:TX:a:Bi:t=p	!	!
(4c#	.	1E_	.	4e	.	4ee	.	IV6
4B	.	.	.	4d#	.	4dd#	.	V
4c#	.	.	.	4e	.	4ee	.	IV6
4d#	.	.	.	4f#)	.	4ff#)	.	V6
=211	=211	=211	=211	=211	=211	=211	=211	=211
!	!	!	!	!	!	!LO:TX:a:Bi:t=p	!	!
4e	.	(4E]	.	4e	.	4ee	.	I]
4d#	.	4D#	.	4r	.	4r	.	.
4e	.	4E	.	2r	.	2r	.	I.I
4f#)	.	4F#)	.	.	.	.	.	.
=212||	=212||	=212||	=212||	=212||	=212||	=212||	=212||	=212||
*k[f#]	*	*k[f#]	*	*k[f#]	*	*k[f#]	*	*
*G:	*	*G:	*	*G:	*	*G:	*	*
2.g	.	[1G	.	(4B	.	(4g	.	I[I
.	.	.	.	4b	.	4gg	.	.
.	.	.	.	4dd	.	4ffX	.	V7/IV
(4g	.	.	.	4cc	.	4ee	.	IV64
=213	=213	=213	=213	=213	=213	=213	=213	=213
4fX	.	1G_	.	4b	.	4dd	.	viio64/IV
4e	.	.	.	4cc	.	4ee	.	IV6
4d	.	.	.	4b	.	2ffX)	.	IV6(4)
4e	.	.	.	4cc)	.	.	.	.
=214	=214	=214	=214	=214	=214	=214	=214	=214
2.fX)	.	1G_	.	(2dd	.	4r	.	viio64/IV
.	.	.	.	.	.	(4ffX	.	.
.	.	.	.	4cc	.	4ee	.	.
(4f	.	.	.	4b	.	4dd	.	.
=215	=215	=215	=215	=215	=215	=215	=215	=215
4e	.	1G_	.	4g	.	4cc	.	IV6
4d	.	.	.	4fX	.	4dd	.	viio6/IV
4c	.	.	.	4e	.	2ee)	.	IV
4d	.	.	.	4f)	.	.	.	.
=216	=216	=216	=216	=216	=216	=216	=216	=216
2.e)	.	1G_	.	2.g	.	4r	.	IV6
.	.	.	.	.	.	(4ee	.	.
.	.	.	.	.	.	4dd	.	.
(4e	.	.	.	(4g	.	4cc	.	.
=217	=217	=217	=217	=217	=217	=217	=217	=217
!	!	!LO:TX:a:i:t=cresc.	!	!	!	!	!	!
!LO:TX:b:i:t=cresc.	!	!LO:TX:a:i:t=cresc.	!	!	!	!LO:TX:a:i:t=cresc.	!	!
4d	.	1G]	.	4fX	.	4b	.	iiio6
4c	.	.	.	4e	.	4a	.	ii6
4B	.	.	.	4d	.	4b	.	I6
4A)	.	.	.	4c)	.	4cc)	.	ii
=218	=218	=218	=218	=218	=218	=218	=218	=218
(2.A	.	[1G [1A	.	2.c	.	(4f#	.	V43
.	.	.	.	.	.	4cc	.	.
.	.	.	.	.	.	4a	.	.
4B	.	.	.	[4d	.	4dd)	.	.
=219	=219	=219	=219	=219	=219	=219	=219	=219
4c	.	1G] 1A]	.	(4d]	.	(4f#	.	.
4d	.	.	.	4f#	.	4cc	.	.
4e	.	.	.	4g	.	4a	.	.
4f#)	.	.	.	4a)	.	4dd)	.	.
=220	=220	=220	=220	=220	=220	=220	=220	=220
!	!	!LO:TX:a:Bi:t=p	!	!	!	!	!	!
!LO:TX:a:Bi:t=p	!	!LO:TX:a:Bi:t=p	!	!	!	!LO:TX:a:Bi:t=p	!	!
4gg	.	4G 4B	.	4d	.	(4b	.	I]
4r	.	4r	.	4r	.	4gg	.	.
4dd	.	2r	.	2r	.	4b	.	I6
4r	.	.	.	.	.	4bb)	.	.
=221	=221	=221	=221	=221	=221	=221	=221	=221
4dd	.	1r	.	(4gg	.	1r	.	vi7
4r	.	.	.	4bb	.	.	.	.
4ee	.	.	.	4gg	.	.	.	.
4r	.	.	.	4ddd)	.	.	.	.
=222	=222	=222	=222	=222	=222	=222	=222	=222
(2gg	.	1r	.	1r	.	(4b	.	I6
.	.	.	.	.	.	4gg	.	I
4aa	.	.	.	.	.	4dd	.	V
4bb)	.	.	.	.	.	4gg)	.	I
=223	=223	=223	=223	=223	=223	=223	=223	=223
1aa	.	1r	.	(4c	.	1r	.	V2
.	.	.	.	4f#	.	.	.	.
.	.	.	.	4d	.	.	.	.
.	.	.	.	4f#)	.	.	.	.
=224	=224	=224	=224	=224	=224	=224	=224	=224
4gg	.	1r	.	1r	.	(4b	.	I6
4r	.	.	.	.	.	4gg	.	.
4dd	.	.	.	.	.	4b	.	.
4r	.	.	.	.	.	4bb)	.	.
=225	=225	=225	=225	=225	=225	=225	=225	=225
4dd	.	1r	.	(4gg	.	1r	.	vi7
4r	.	.	.	4bb	.	.	.	.
4ee	.	.	.	4gg	.	.	.	.
4r	.	.	.	4ddd)	.	.	.	.
=226	=226	=226	=226	=226	=226	=226	=226	=226
4ee	.	1r	.	1r	.	(4B	.	vi64
4r	.	.	.	.	.	4g	.	.
4dd	.	.	.	.	.	4B	.	I6
4r	.	.	.	.	.	4b)	.	.
=227	=227	=227	=227	=227	=227	=227	=227	=227
1dd	.	(4g	.	(4b	.	4eee	.	I(+6)
.	.	4dd	.	4gg	.	4r	.	.
.	.	4b	.	4dd	.	4ddd	.	I6
.	.	4dd)	.	4gg)	.	4r	.	.
=228	=228	=228	=228	=228	=228	=228	=228	=228
!LO:TX:a:i:t=cresc.	!	!	!	!	!	!LO:TX:a:i:t=cresc.	!	!
(4GG	.	1r	.	1r	.	4gg	.	I
4D	.	.	.	.	.	4r	.	.
4BB	.	.	.	.	.	4dd	.	I6
4G)	.	.	.	.	.	4r	.	.
=229	=229	=229	=229	=229	=229	=229	=229	=229
!	!	!LO:TX:a:i:t=cresc.	!	!	!	!	!	!
!	!	!LO:TX:a:i:t=cresc.	!	!	!	!	!	!
1r	.	(4B	.	(4d	.	4dd	.	.
.	.	4g	.	4b	.	4r	.	.
.	.	4d	.	4g	.	4ee	.	I64(+2)
.	.	4b)	.	4dd)	.	4r	.	.
=230	=230	=230	=230	=230	=230	=230	=230	=230
!	!	!	!	!LO:TX:a:Bi:t=p	!	!LO:TX:a:Bi:t=p	!	!
1r	.	1r	.	(4g	.	(2gg	.	I
.	.	.	.	4dd	.	.	.	.
.	.	.	.	4b	.	4aa	.	.
.	.	.	.	4gg)	.	4bb)	.	.
=231	=231	=231	=231	=231	=231	=231	=231	=231
!LO:TX:a:i:t=cresc.	!	!	!	!	!	!	!	!
1r	.	(4D	.	(4f#	.	1aa	.	V43
.	.	4c	.	4dd	.	.	.	.
.	.	4A	.	4cc	.	.	.	.
.	.	4d)	.	4ff#)	.	.	.	.
=232	=232	=232	=232	=232	=232	=232	=232	=232
!LO:TX:a:i:t=cresc.	!	!	!	!LO:TX:a:i:t=cresc.	!	!LO:TX:a:i:t=cresc.	!	!
(4GG	.	4d	.	4b	.	4gg	.	I
4D	.	4r	.	4r	.	4r	.	.
4BB	.	2r	.	2r	.	4ddd	.	I6
4G)	.	.	.	.	.	4r	.	.
=233	=233	=233	=233	=233	=233	=233	=233	=233
4G	.	(4G	.	(4B	.	4ddd	.	I
4r	.	4d	.	4g)	.	4r	.	.
4D	.	4B	.	(4g	.	4eee	.	vi2
4r	.	4g)	.	4b)	.	4r	.	.
=234	=234	=234	=234	=234	=234	=234	=234	=234
!	!	!LO:TX:a:Bi:t=p	!	!LO:TX:a:Bi:t=p	!	!LO:TX:a:Bi:t=p	!	!
4D	.	(4B	.	(4g	.	4eee	.	.
4r	.	4g	.	4b	.	4r	.	.
4E	.	4B	.	4g	.	4ddd	.	vi7
4r	.	4b)	.	4dd)	.	4r	.	.
=235	=235	=235	=235	=235	=235	=235	=235	=235
4E	.	(4g	.	(4b	.	[1ddd	.	I64
4r	.	4b	.	4dd	.	.	.	.
4D	.	4g)	.	4b)	.	.	.	.
4r	.	4G'	.	4b'	.	.	.	.
=236	=236	=236	=236	=236	=236	=236	=236	=236
!	!	!LO:TX:a:i:t=cresc.	!	!LO:TX:a:i:t=cresc.	!	!LO:TX:a:i:t=cresc.	!	!
4E	.	2G'	.	2dd'	.	1ddd_	.	V
4r	.	.	.	.	.	.	.	.
4D'	.	2F#'	.	2a'	.	.	.	.
4F#'	.	.	.	.	.	.	.	.
=237	=237	=237	=237	=237	=237	=237	=237	=237
4A'	.	2r	.	2r	.	1ddd_	.	V64
4d'	.	.	.	.	.	.	.	.
4f#'	.	4r	.	4r	.	.	.	.
4D	.	4f#	.	4a	.	.	.	.
=238	=238	=238	=238	=238	=238	=238	=238	=238
4E	.	2f#'	.	2cc'	.	1ddd_	.	I64
4r	.	.	.	.	.	.	.	.
4D	.	2B'	.	2g'	.	.	.	.
4G	.	.	.	.	.	.	.	.
=239	=239	=239	=239	=239	=239	=239	=239	=239
4B	.	1r	.	1r	.	2.ddd]	.	I6
4d	.	.	.	.	.	.	.	.
4g	.	.	.	.	.	.	.	.
4g	.	.	.	.	.	4bb'	.	.
=240	=240	=240	=240	=240	=240	=240	=240	=240
!LO:TX:b:i:t=piu	!	!	!	!	!	!LO:TX:b:i:t=piu	!	!
!LO:TX:a:Bi:t=f	!	!	!	!	!	!LO:TX:b:Bi:t=f	!	!
!LO:TX:b:Bi:t=f	!	!	!	!	!	!LO:TX:b:Bi:t=f	!	!
2g'	.	2r	.	2r	.	2ddd'	.	I
2f#'	.	4r	.	4r	.	2aa'	.	V6
.	.	4G	.	4B	.	.	.	.
=241	=241	=241	=241	=241	=241	=241	=241	=241
!LO:TX:a:i:t=piu	!	!LO:TX:a:i:t=piu	!	!	!	!	!	!
!LO:TX:a:Bi:t=f	!	!LO:TX:a:Bi:t=f	!	!	!	!	!	!
2r	.	2G'	.	2d'	.	2r	.	I
4r	.	2F#'	.	2A'	.	4r	.	V6
4a	.	.	.	.	.	4ccc	.	viio
=242	=242	=242	=242	=242	=242	=242	=242	=242
!LO:TX:a:Bi:t=f	!	!LO:TX:a:Bi:t=f	!	!	!	!	!	!
2a'	.	2r	.	2r	.	2eee'	.	ii
2g'	.	4r	.	4r	.	2bb'	.	I
.	.	4A	.	4c	.	.	.	.
=243	=243	=243	=243	=243	=243	=243	=243	=243
!LO:TX:a:Bi:t=ff	!	!	!	!	!	!	!	!
!LO:TX:a:Bi:t=ff	!	!LO:TX:a:Bi:t=ff	!	!	!	!LO:TX:a:Bi:t=ff	!	!
2r	.	2A'	.	2e'	.	2r	.	ii
4r	.	4G'	.	4B'	.	4r	.	I
4BB	.	4G	.	4d	.	4gg	.	I6
=244	=244	=244	=244	=244	=244	=244	=244	=244
!LO:TX:a:Bi:t=sf	!	!	!	!	!	!	!	!
2D	.	4c	.	4d	.	4ff#	.	V7
.	.	4d	.	4cc	.	4aa	.	.
4AA	.	4d	.	4cc	.	4ccc	.	V43(+2)
4AA	.	4d	.	4cc	.	4eee	.	.
=245	=245	=245	=245	=245	=245	=245	=245	=245
!LO:TX:a:Bi:t=sf	!	!	!	!	!	!	!	!
2BB	.	4d	.	4dd	.	4ddd	.	I6
.	.	4d	.	4dd	.	4ggg	.	.
4GG	.	4d	.	4b	.	4ggg	.	I
4GG	.	4G 4B	.	4dd	.	4bbb	.	.
=246	=246	=246	=246	=246	=246	=246	=246	=246
!	!	!LO:TX:b:t=Si repete la seconda\nparte al suo piacere.	!	!	!	!	!	!
2DD	.	2G 2B	.	2b 2ddd	.	2bbb	.	V(64)
!LO:TX:b:B:t=Poco adagio.	!	!	!	!	!	!	!	!
2D	.	2A 2c	.	2a 2cc	.	2ff#	.	V7
=247	=247	=247	=247	=247	=247	=247	=247	=247
4GG	.	4G 4B	.	4g 4b	.	4gg	.	I\\
4r	.	4r	.	4r	.	4r	.	.
2r	.	2r	.	2r	.	2r	.	.
=248:|!	=248:|!	=248:|!	=248:|!	=248:|!	=248:|!	=248:|!	=248:|!	=248:|!
4GG	.	4G 4B	.	4g 4b	.	4gg	.	I\\
4r	.	4r	.	4r	.	4r	.	.
!LO:TX:b:B:t=Tempo I.	!	!	!	!	!	!	!	!
4r	.	2r	.	2r	.	4r	.	.
!LO:TX:a:Bi:t=p	!	!	!	!	!	!LO:TX:a:Bi:t=p	!	!
4D#X	.	.	.	.	.	4g	.	I+64
=249	=249	=249	=249	=249	=249	=249	=249	=249
2D#X	.	2r	.	2r	.	2b	.	V6/vi
[2D#	.	4r	.	4r	.	[2f#	.	#viio7/vi
!	!	!LO:TX:a:Bi:t=p	!	!	!	!	!	!
!	!	!LO:TX:a:Bi:t=p	!	!	!	!	!	!
.	.	4c	.	4A	.	.	.	.
=250	=250	=250	=250	=250	=250	=250	=250	=250
2.D#;]	.	2A	.	2c	.	2.f#;]	.	.
.	.	4F#;	.	4A;	.	.	.	.
4G#X	.	4r	.	4r	.	4cc	.	IV+64
=251	=251	=251	=251	=251	=251	=251	=251	=251
2G#X	.	2r	.	2r	.	2ee	.	V6/ii
[2G#	.	4r	.	4r	.	[2b	.	V6(+6)/ii
.	.	4c#	.	4e	.	.	.	.
=252	=252	=252	=252	=252	=252	=252	=252	=252
2.G#;]	.	2d	.	2fX	.	2.b;]	.	#viio7/ii
.	.	4B;	.	4d;	.	.	.	.
!LO:TX:b:Bi:t=pp	!	!	!	!	!	!LO:TX:a:Bi:t=pp	!	!
4fX	.	4r	.	4r	.	4aa	.	.bVII
=253	=253	=253	=253	=253	=253	=253	=253	=253
2fX	.	2r	.	4r	.	2ccc	.	.
!	!	!	!	!LO:TX:a:Bi:t=pp	!	!	!	!
.	.	.	.	4a	.	.	.	.
[2f	.	4r	.	2cc	.	[2gg#X	.	.bvii
!	!	!LO:TX:b:Bi:t=pp	!	!	!	!	!	!
.	.	4g#X	.	.	.	.	.	.
=254	=254	=254	=254	=254	=254	=254	=254	=254
2.f;]	< >	2.ccX;	< >	2.g#X;	< >	2.gg#;]	< >	.
!LO:TX:a:Bi:t=pp	!	!LO:TX:a:Bi:t=pp	!	!LO:TX:a:Bi:t=pp	!	!LO:TX:a:Bi:t=pp	!	!
4r	] ]	4r	] ]	4r	] ]	4r	] ]	.
=255	=255	=255	=255	=255	=255	=255	=255	=255
!LO:TX:b:t=pizz.	!	!LO:TX:b:t=pizz.	!	!LO:TX:b:t=pizz.	!	!LO:TX:b:t=pizz.	!	!
4g	.	4g	.	4g	.	4gg	.	I
4r	.	4r	.	4r	.	4r	.	.
4g	.	4g	.	4b	.	4dd	.	.
4r	.	4r	.	4r	.	4r	.	.
=256	=256	=256	=256	=256	=256	=256	=256	=256
4g	.	4g	.	4b	.	4dd	.	.
4r	.	4r	.	4r	.	4r	.	.
4f#	.	4g	.	4cc	.	4ee	.	IV64(+4)
4r	.	4r	.	4r	.	4r	.	.
=257	=257	=257	=257	=257	=257	=257	=257	=257
4e	.	4g	.	4b	.	4gg	.	vi
4r	.	4r	.	4r	.	4r	.	.
4d	.	4dd	.	4ff#	.	4aa	.	V
4c#	.	4dd	.	4gg	.	4bb	.	#vii%7(+2)/V
=258	=258	=258	=258	=258	=258	=258	=258	=258
4d	.	4dd	.	4ff#	.	4aa	.	V\\
4r	.	4r	.	4r	.	4r	.	.
2r	.	2r	.	2r	.	2r	.	.
=259	=259	=259	=259	=259	=259	=259	=259	=259
4g	.	4dd	.	4b	.	4gg	.	I
4r	.	4r	.	4r	.	4r	.	.
4g	.	4g	.	4b 4gg	.	4ddd	.	.
4r	.	4r	.	4r	.	4r	.	.
=260	=260	=260	=260	=260	=260	=260	=260	=260
4e	.	4g	.	4b 4gg	.	4ddd	.	vi7
4r	.	4r	.	4r	.	4r	.	.
4d	.	4g	.	4b 4gg	.	4eee	.	vi2
4r	.	4r	.	4r	.	4r	.	.
=261	=261	=261	=261	=261	=261	=261	=261	=261
4cX	.	4a	.	4gg	.	4eee	.	ii65
4r	.	4r	.	4r	.	4r	.	.
4d	.	4a	.	4ff#	.	4ddd	.	V
4r	.	4r	.	4r	.	4r	.	.
=262	=262	=262	=262	=262	=262	=262	=262	=262
4g	.	4b	.	4gg	.	4ddd	.	I\\
4r	.	4r	.	4r	.	4r	.	.
2r	.	2r	.	2r	.	2r	.	.
=263	=263	=263	=263	=263	=263	=263	=263	=263
!	!	!	!	!	!	!LO:TX:a:t=arco	!	!
4g	.	4b	.	4gg	.	4gg	.	I
4r	.	4r	.	4r	.	4bb	.	.
4g	.	4b	.	4dd	.	4ddd	.	.
4r	.	4r	.	4r	.	4ggg	.	.
=264	=264	=264	=264	=264	=264	=264	=264	=264
4g	.	4b	.	4dd	.	4ggg	.	.
4r	.	4r	.	4r	.	4ggg	.	.
4f#	.	4cc	.	4ee	.	4ggg	.	IV(+4)
4r	.	4r	.	4r	.	4ggg	.	.
=265	=265	=265	=265	=265	=265	=265	=265	=265
4e	.	4g	.	4gg	.	4aaa	.	vi(4)
4r	.	4r	.	4r	.	4ggg	.	vi
4d	.	4f# 4dd	.	4aa	.	4aaa	.	V
4c#	.	4g 4dd	.	4bb	.	4bbb	.	#vii%7(+2)/V
=266	=266	=266	=266	=266	=266	=266	=266	=266
4d	.	4f# 4dd	.	4aa	.	4bbb	.	V(6)
4r	.	4r	.	4r	.	4aaa	.	V\\
2r	.	2r	.	2r	.	4ggg	.	.
.	.	.	.	.	.	4aaa	.	.
=267	=267	=267	=267	=267	=267	=267	=267	=267
4g	.	4b	.	4gg	.	4gg	.	I
4r	.	4r	.	4r	.	4bb	.	.
4g	.	4b	.	4dd	.	4ddd	.	.
4r	.	4r	.	4r	.	4ggg	.	.
=268	=268	=268	=268	=268	=268	=268	=268	=268
4e	.	4g 4b	.	4dd	.	4ggg	.	vi7
4r	.	4r	.	4r	.	4ggg	.	.
4d	.	4g 4b	.	4ee	.	4ggg	.	vi2
4r	.	4r	.	4r	.	4ggg	.	.
=269	=269	=269	=269	=269	=269	=269	=269	=269
4cX	.	4a	.	4ee	.	4ggg	.	ii65
4r	.	4r	.	4r	.	4aaa	.	.
4d	.	4f#	.	4dd	.	4aaa	.	V
4r	.	4r	.	4r	.	4aaa	.	.
=270	=270	=270	=270	=270	=270	=270	=270	=270
4g	.	4b	.	4dd	.	4aaa	.	I(+2)
!	!	!LO:TX:a:t=arco	!	!	!	!	!	!
4r	.	4d	.	4r	.	4ggg	.	I\\
4r	.	4D	.	4r	.	4fff#	.	I64
*clefF4	*	*	*	*	*	*	*	*
!LO:TX:a:Bi:t=pp	!	!	!	!	!	!	!	!
!LO:TX:a:t=arco	!	!	!	!LO:TX:b:Bi:t=pp	!	!LO:TX:a:t=arco	!	!
4D	.	4r	.	4bb	.	4ggg	.	V[I64
=271	=271	=271	=271	=271	=271	=271	=271	=271
4DD	.	4r	.	2ddd	.	4r	.	.
!	!	!LO:TX:a:Bi:t=pp	!	!	!	!LO:TX:a:Bi:t=pp	!	!
4r	.	4d	.	.	.	4ggg	.	.
4r	.	4D	.	4aa	.	4r	.	V(4)
4D	.	4r	.	4aa	.	4fff#	.	V
=272	=272	=272	=272	=272	=272	=272	=272	=272
4DD	.	4r	.	2ccc	.	4r	.	V7
4r	.	4d	.	.	.	4fff#	.	.
4r	.	4D	.	4gg	.	4r	.	vi2
4D	.	4r	.	4gg	.	4eee	.	.
=273	=273	=273	=273	=273	=273	=273	=273	=273
4DD	.	4r	.	2bb	.	4r	.	.
4r	.	4d	.	.	.	4eee	.	.
4r	.	4D	.	4ff#	.	4r	.	V
4D	.	4r	.	4ff#	.	4ddd	.	.
=274	=274	=274	=274	=274	=274	=274	=274	=274
4DD	.	4r	.	4aa	.	4r	.	V7
4r	.	4d	.	4ee	.	4ccc	.	.
4r	.	4D	.	4gg	.	4r	.	I64
4D	.	4r	.	4dd	.	4bb	.	.
=275	=275	=275	=275	=275	=275	=275	=275	=275
!	!	!LO:TX:b:i:t=sempre	!	!LO:TX:b:i:t=sempre	!	!	!	!
4DD	.	4r	.	2ddd	.	4r	.	I
!	!	!	!	!	!	!LO:TX:a:i:t=sempre	!	!
4D	.	4g	.	.	.	4gg	.	.
!	!	!LO:TX:b:Bi:t=pp	!	!LO:TX:a:Bi:t=pp	!	!LO:TX:a:Bi:t=pp	!	!
4DD	.	4r	.	4aa	.	4r	.	V6
4D	.	4f#	.	4aa	.	4ff#	.	.
=276	=276	=276	=276	=276	=276	=276	=276	=276
4DD	.	4r	.	2ccc	.	4r	.	viio
4D	.	4f#	.	.	.	4ff#	.	.
4DD	.	4r	.	4gg	.	4r	.	vi
4D	.	4e	.	4gg	.	4ee	.	.
=277	=277	=277	=277	=277	=277	=277	=277	=277
4DD	.	4r	.	2bb	.	4r	.	.
4D	.	4e	.	.	.	4ee	.	.
4DD	.	4r	.	4ff#	.	4r	.	V
4D	.	4d	.	4ff#	.	4dd	.	.
=278	=278	=278	=278	=278	=278	=278	=278	=278
4DD	.	4r	.	4aa	.	4r	.	V7
4D	.	4c	.	4ee	.	4cc	.	.
4DD	.	4c	.	4gg	.	4cc	.	IV]
!LO:TX:b:Bi:t=ff	!	!LO:TX:a:Bi:t=ff	!	!LO:TX:b:Bi:t=ff	!	!LO:TX:b:Bi:t=ff	!	!
4BB	.	4B	.	4b	.	4b 4bb	.	I6
=279	=279	=279	=279	=279	=279	=279	=279	=279
2D	.	2d	.	2dd	.	2ddd	.	V
4AA	.	4A	.	4a	.	4aa	.	V64
4AA	.	4A	.	4a	.	4aa	.	.
=280	=280	=280	=280	=280	=280	=280	=280	=280
2BB	.	2B	.	2b	.	2bb	.	I6
!	!	!	!	!	!	!LO:TX:b:i:t=sempre	!	!
4GG	.	4G	.	4g	.	4gg	.	I
!	!	!	!	!	!	!LO:TX:b:Bi:t=pp	!	!
4BB	.	4B	.	4b	.	4b 4bb	.	I6
=281	=281	=281	=281	=281	=281	=281	=281	=281
2D'	.	2d'	.	2b' 2bb	.	2ddd'	.	V(64)
2DD'	.	2D'	.	2cc' 2aa	.	2fff#'	.	V7
=282	=282	=282	=282	=282	=282	=282	=282	=282
4GG	.	4G	.	4b 4gg	.	4b 4ggg	.	I\\
4r	.	4r	.	4r	.	4r	.	.
2r;	.	2r;	.	2r;	.	2r;	.	.
==	==	==	==	==	==	==	==	==
*-	*-	*-	*-	*-	*-	*-	*-	*-
!!!system-decoration: [(s1,s2,s3,s4)]
!!!YEM: <font size="12"/><b><i>f</i></b><font size="12"/><b><i>f</i></b><font size="12"/><b><i>ff</i></b><font size="12"/><b><i>p</i></b><font size="10"/><i>cresc.</i><font size="12"/><b><i>p</i></b><font size="10"/><i>dim.</i>
